!!!!SEGMENT: pl-cz--iii-108--007_dankowski-adalbert--litaniae-es-agnus-dei.krn
!!!cenid: 18xx:779
!!!COM: Dankowski, Adalbert
!!!COM-rismid: pe30000793
!!!CDT: ~1760-~1836
!!!CNT: Polish
!!!OPR: Litaniae Es
!!!OTL: Agnus Dei
!!!OMV: 007
!!!PDT:
!!!AGN: Sacred; Vespers
!!!SMS-siglum: PL-CZ
!!!SMS-shelfmark: III-108
!!!SMS-shelfwork: 001-007 M
!!!SMS-variant:
!!!SMS-altvar:
!!!NIFC-rismid: 300000106
!!!URL-scan: http://repozytorium.nifc.pl/skany/pl-cz-nut--iii-108
!!!ONB-nifc: UWAGA: części Litanii: Kyrie, Sancta Maria, Virgo prudentissima, Speculum iustitiae,
!!!key: E-
**kern	**dynam	**fba	**kern	**dynam	**kern	**dynam	**kern	**text	**kern	**text	**kern	**text	**kern	**text	**kern	**dynam	**kern	**dynam	**kern	**dynam	**kern	**dynam	**kern	**dynam
*group5	*	*	*group4	*	*group4	*	*group3	*	*group3	*	*group3	*	*group3	*	*group2	*	*group2	*	*group1	*	*group1	*	*group1	*
*part12	*part12	*part12	*part11	*part11	*part10	*part10	*part9	*part9	*part8	*part8	*part7	*part7	*part6	*part6	*part5	*part5	*part4	*part4	*part3	*part3	*part2	*part2	*part1	*part1
*staff12	*	*	*staff11	*	*staff10	*	*staff9	*staff9	*staff8	*staff8	*staff7	*staff7	*staff6	*staff6	*staff5	*	*staff4	*	*staff3	*	*staff2	*	*staff1	*
*I"Organo	*	*	*I"Violino Secondo	*	*I"Violino Primo	*	*I"Baſso	*	*I"Tenore	*	*I"Alto	*	*I"Canto	*	*I"Cornu Secondo Ex Es	*	*I"Cornu Primo Ex Es	*	*I"Fagotho Obligatto	*	*I"Clarinetto Secondo Ex Es	*	*I"Clarinetto Primo Ex Es	*
*I'[Org]	*	*	*I'[Vl 2]	*	*I'[Vl 1]	*	*I'[B]	*	*I'[T]	*	*I'[A]	*	*I'[S]	*	*I'[Cor 2 in Es]	*	*I'[Cor 1 in Es]	*	*I'[Fag]	*	*I'[Cl 2 in Es]	*	*I'[Cl 1 in Es]	*
*	*	*	*	*	*Iorgan	*	*Ibass	*	*Itenor	*	*Ialto	*	*Isoprn	*	*Icor	*	*Icor	*	*Ifagot	*	*Iclara	*	*Iclara	*
*	*	*	*	*	*ICklav	*	*ICvox	*	*ICvox	*	*ICvox	*	*ICvox	*	*ICbras	*	*ICbras	*	*ICww	*	*ICww	*	*ICww	*
*	*	*	*	*	*IGcont	*	*IGcoro	*	*IGcoro	*	*IGcoro	*	*IGcoro	*	*IGacmp	*	*IGacmp	*	*IGacmp	*	*IGacmp	*	*IGacmp	*
*clefF4	*	*	*clefG2	*	*clefG2	*	*clefF4	*	*clefC4	*	*clefC3	*	*clefC1	*	*clefG2	*	*clefG2	*	*clefF4	*	*clefG2	*	*clefG2	*
*	*	*	*	*	*	*	*	*	*	*	*	*	*	*	*ITrd5c9	*	*ITrd5c9	*	*	*	*ITrd1c2	*	*ITrd1c2	*
*k[b-e-a-]	*	*	*k[b-e-a-]	*	*k[b-e-a-]	*	*k[b-e-a-]	*	*k[b-e-a-]	*	*k[b-e-a-]	*	*k[b-e-a-]	*	*k[b-e-a-]	*	*k[b-e-a-]	*	*k[b-e-a-]	*	*k[b-e-a-]	*	*k[b-e-a-]	*
*E-:	*	*	*E-:	*	*E-:	*	*E-:	*	*E-:	*	*E-:	*	*E-:	*	*E-:	*	*E-:	*	*E-:	*	*E-:	*	*E-:	*
*M2/4	*	*	*M2/4	*	*M2/4	*	*M2/4	*	*M2/4	*	*M2/4	*	*M2/4	*	*M2/4	*	*M2/4	*	*M2/4	*	*M2/4	*	*M2/4	*
=1	=1	=1	=1	=1	=1	=1	=1	=1	=1	=1	=1	=1	=1	=1	=1	=1	=1	=1	=1	=1	=1	=1	=1	=1
*	*	*	*	*	*	*	*	*	*	*	*	*	*	*	*	*	*2\right	*	*	*	*	*	*2\right	*
!	!	!	!	!	!	!	!	!	!	!	!	!	!	!	!	!	!LO:TX:a:t=Andan&colon;	!	!	!	!LO:TX:a:t=Andan&colon;	!	!LO:TX:a:t=P:problem:transpozycja in B	!
!LO:TX:b:t=Agnus	!	!	!LO:TX:b:t=Agnus	!	!LO:TX:b:t=Agnus	!	!LO:TX:b:t=Agnus	!	!LO:TX:b:t=Anadante	!	!	!	!	!	!LO:TX:a:t=Andan&colon;	!	!LO:TX:b:t=Agnus	!	!LO:TX:a:t=andan&colon;	!	!LO:TX:a:t=P:problem:transpozycja in B	!	!LO:TX:b:t=Agnus	!
!LO:TX:a:t=andan&colon; Solo	!	!	!LO:TX:a:t=andan&colon; Solo:	!	!LO:TX:a:t=Andante Solo	!	!LO:TX:a:t=Andan&colon; Solo&colon;	!	!LO:TX:a:t=P:problem:znaki B- E- A-	!	!LO:TX:a:t=Andan&colon; Solo	!	!LO:TX:a:t=Andan&colon; Solo.	!	!LO:TX:b:t=Agnus	!	!	!	!LO:TX:b:t=Agnus	!	!LO:TX:b:t=Agnus	!	!	!
8E-\L	.	.	4g/	.	(>16ee-\LL	.	0r	.	0r	.	0r	.	0r	.	2E-/	.	2e-\	.	8E-\L	.	2g/	.	2b-\	.
.	.	.	.	.	16b-\)	.	.	.	.	.	.	.	.	.	.	.	.	.	.	.	.	.	.	.
8E-\	.	.	.	.	16b-'>\	.	.	.	.	.	.	.	.	.	.	.	.	.	8E-\	.	.	.	.	.
.	.	.	.	.	16b-'>\JJ	.	.	.	.	.	.	.	.	.	.	.	.	.	.	.	.	.	.	.
8E-\	.	.	16r	.	(>8.b-\L	.	.	.	.	.	.	.	.	.	.	.	.	.	8E-\	.	.	.	.	.
.	.	.	16g/LL	.	.	.	.	.	.	.	.	.	.	.	.	.	.	.	.	.	.	.	.	.
8E-\J	.	.	16g/	.	.	.	.	.	.	.	.	.	.	.	.	.	.	.	8E-\J	.	.	.	.	.
.	.	.	16g/JJ	.	32cc\LL	.	.	.	.	.	.	.	.	.	.	.	.	.	.	.	.	.	.	.
.	.	.	.	.	32dd\JJJ)	.	.	.	.	.	.	.	.	.	.	.	.	.	.	.	.	.	.	.
=2	=2	=2	=2	=2	=2	=2	=2-	=2	=2-	=2	=2-	=2	=2-	=2	=2	=2	=2	=2	=2	=2	=2	=2	=2	=2
*tremolo	*	*	*	*	*	*	*	*	*	*	*	*	*	*	*	*	*	*	*2\right	*	*	*	*	*
*2\right	*	*	*	*	*	*	*	*	*	*	*	*	*	*	*	*	*	*	*tremolo	*	*	*	*	*
8E-\L	.	6 4	4a-/	.	(>16ee-\LL	.	.	.	.	.	.	.	.	.	2E-/	.	2e-\	.	8E-\L	.	2a-/	.	2cc\	.
.	.	.	.	.	16cc\)	.	.	.	.	.	.	.	.	.	.	.	.	.	.	.	.	.	.	.
8E-\	.	.	.	.	16cc'>\	.	.	.	.	.	.	.	.	.	.	.	.	.	8E-\	.	.	.	.	.
.	.	.	.	.	16cc'>\JJ	.	.	.	.	.	.	.	.	.	.	.	.	.	.	.	.	.	.	.
8E-\	.	.	16r	.	(>8.cc\L	.	.	.	.	.	.	.	.	.	.	.	.	.	8E-\	.	.	.	.	.
.	.	.	16a-/LL	.	.	.	.	.	.	.	.	.	.	.	.	.	.	.	.	.	.	.	.	.
8E-\J	.	.	16a-/	.	.	.	.	.	.	.	.	.	.	.	.	.	.	.	8E-\J	.	.	.	.	.
.	.	.	16a-/JJ	.	32dd\LL	.	.	.	.	.	.	.	.	.	.	.	.	.	.	.	.	.	.	.
.	.	.	.	.	32ee-\JJJ)	.	.	.	.	.	.	.	.	.	.	.	.	.	.	.	.	.	.	.
=3	=3	=3	=3	=3	=3	=3	=3-	=3	=3-	=3	=3-	=3	=3-	=3	=3	=3	=3	=3	=3	=3	=3	=3	=3	=3
8E-\L	.	7 2	4f/	.	(>16ff\LL	.	.	.	.	.	.	.	.	.	2E-/	.	2e-\	.	8E-\L	.	2f/	.	2dd\	.
.	.	.	.	.	16dd\)	.	.	.	.	.	.	.	.	.	.	.	.	.	.	.	.	.	.	.
8E-\	.	.	.	.	16dd'>\	.	.	.	.	.	.	.	.	.	.	.	.	.	8E-\	.	.	.	.	.
.	.	.	.	.	16dd'>\JJ	.	.	.	.	.	.	.	.	.	.	.	.	.	.	.	.	.	.	.
8E-\	.	.	8f/L	.	(>16dd\LL	.	.	.	.	.	.	.	.	.	.	.	.	.	8E-\	.	.	.	.	.
.	.	.	.	.	16ff\)	.	.	.	.	.	.	.	.	.	.	.	.	.	.	.	.	.	.	.
8E-\J	.	.	8f/J	.	(>16aa-\	.	.	.	.	.	.	.	.	.	.	.	.	.	8E-\J	.	.	.	.	.
.	.	.	.	.	16ff\JJ)	.	.	.	.	.	.	.	.	.	.	.	.	.	.	.	.	.	.	.
*Xtremolo	*	*	*	*	*	*	*	*	*	*	*	*	*	*	*	*	*	*	*Xtremolo	*	*	*	*	*
=4	=4	=4	=4	=4	=4	=4	=4-	=4	=4-	=4	=4-	=4	=4-	=4	=4	=4	=4	=4	=4	=4	=4	=4	=4	=4
8E-\L	.	8 7	8g/L	.	(>16ff\LL	.	.	.	.	.	.	.	.	.	8E-/L	.	8e-\L	.	8E-\L	.	8g/L	.	8ee-\L	.
.	.	.	.	.	16ee-\J)	.	.	.	.	.	.	.	.	.	.	.	.	.	.	.	.	.	.	.
8E-\	.	.	8g/	.	8ee-'>\J	.	.	.	.	.	.	.	.	.	8E-/	.	8e-\	.	8E-\	.	8g/	.	8ee-\	.
8E-\J	.	.	8g/J	.	8r	.	.	.	.	.	.	.	.	.	8E-/J	.	8e-\J	.	8E-\J	.	8g/J	.	8ee-\J	.
8r	.	.	8r	.	32g/LLL	.	.	.	.	.	.	.	.	.	8r	.	8r	.	8r	.	8r	.	8r	.
.	.	.	.	.	32f/	.	.	.	.	.	.	.	.	.	.	.	.	.	.	.	.	.	.	.
.	.	.	.	.	(<32g/	.	.	.	.	.	.	.	.	.	.	.	.	.	.	.	.	.	.	.
.	.	.	.	.	32a-/JJJ)	.	.	.	.	.	.	.	.	.	.	.	.	.	.	.	.	.	.	.
!	!	!	!	!	!LO:LB:g=original	!	!	!	!	!	!	!	!	!	!	!	!	!	!	!	!	!	!	!
=5	=5	=5	=5	=5	=5	=5	=5-	=5	=5-	=5	=5-	=5	=5-	=5	=5	=5	=5	=5	=5	=5	=5	=5	=5	=5
*tremolo	*	*	*	*	*	*	*	*	*	*	*	*	*	*	*	*	*	*	*	*	*	*	*	*
8E-\L	.	.	8g/L	.	8.b-\L	.	0r	.	0r	.	0r	.	0r	.	1r	.	1r	.	1r	.	1r	.	1r	.
8E-\	.	.	8g/	.	.	.	.	.	.	.	.	.	.	.	.	.	.	.	.	.	.	.	.	.
.	.	.	.	.	16cc\Jk	.	.	.	.	.	.	.	.	.	.	.	.	.	.	.	.	.	.	.
8E-\	.	.	8g/	.	16b-\LL	.	.	.	.	.	.	.	.	.	.	.	.	.	.	.	.	.	.	.
.	.	.	.	.	16cc\	.	.	.	.	.	.	.	.	.	.	.	.	.	.	.	.	.	.	.
8E-\J	.	.	8g/J	.	16dd\	.	.	.	.	.	.	.	.	.	.	.	.	.	.	.	.	.	.	.
.	.	.	.	.	16ee-\JJ	.	.	.	.	.	.	.	.	.	.	.	.	.	.	.	.	.	.	.
*Xtremolo	*	*	*	*	*	*	*	*	*	*	*	*	*	*	*	*	*	*	*	*	*	*	*	*
!	!	!	!LO:LB:g=original	!	!	!	!	!	!	!	!	!	!	!	!	!	!	!	!	!	!	!	!	!
=6	=6	=6	=6	=6	=6	=6	=6-	=6	=6-	=6	=6-	=6	=6-	=6	=6-	=6	=6-	=6	=6-	=6	=6-	=6	=6-	=6
8E-\L	.	7 x	8.a-/L	.	8.cc\L	.	.	.	.	.	.	.	.	.	.	.	.	.	.	.	.	.	.	.
8E-\	.	.	.	.	.	.	.	.	.	.	.	.	.	.	.	.	.	.	.	.	.	.	.	.
.	.	.	32g/LL	.	32b-\LL	.	.	.	.	.	.	.	.	.	.	.	.	.	.	.	.	.	.	.
.	.	.	32a-/JJJ	.	32cc\JJJ	.	.	.	.	.	.	.	.	.	.	.	.	.	.	.	.	.	.	.
8E-\	.	7 x	8g/L	.	16b-\LL	.	.	.	.	.	.	.	.	.	.	.	.	.	.	.	.	.	.	.
.	.	.	.	.	16dd\	.	.	.	.	.	.	.	.	.	.	.	.	.	.	.	.	.	.	.
8E-\J	.	.	16a-/L	.	16ff\	.	.	.	.	.	.	.	.	.	.	.	.	.	.	.	.	.	.	.
.	.	.	16b-/JJ	.	16gg\JJ	.	.	.	.	.	.	.	.	.	.	.	.	.	.	.	.	.	.	.
=7	=7	=7	=7	=7	=7	=7	=7-	=7	=7-	=7	=7-	=7	=7-	=7	=7-	=7	=7-	=7	=7-	=7	=7-	=7	=7-	=7
8B-\L	.	7 x	(<16b-/LL	.	(>16gg\LL	.	.	.	.	.	.	.	.	.	2r	.	2r	.	2r	.	2r	.	2r	.
.	.	.	16a-/)	.	16ff\)	.	.	.	.	.	.	.	.	.	.	.	.	.	.	.	.	.	.	.
8B-\	.	.	16a-'</	.	16ff'>\	.	.	.	.	.	.	.	.	.	.	.	.	.	.	.	.	.	.	.
.	.	.	16g'</JJ	.	16ff'>\JJ	.	.	.	.	.	.	.	.	.	.	.	.	.	.	.	.	.	.	.
8E-\	.	.	(<16cc/LL	.	(>16aa-\LL	.	.	.	.	.	.	.	.	.	.	.	.	.	.	.	.	.	.	.
.	.	.	16b-/)	.	16gg\)	.	.	.	.	.	.	.	.	.	.	.	.	.	.	.	.	.	.	.
8E-\J	.	.	(<16a-/	.	(>16ff\	.	.	.	.	.	.	.	.	.	.	.	.	.	.	.	.	.	.	.
.	.	.	16g/JJ)	.	16ee-\JJ)	.	.	.	.	.	.	.	.	.	.	.	.	.	.	.	.	.	.	.
=8	=8	=8	=8	=8	=8	=8	=8-	=8	=8-	=8	=8-	=8	=8-	=8	=8	=8	=8	=8	=8	=8	=8	=8	=8	=8
!!mixed beam:problem
!LO:TX:a:t=P:problem:mixed beam	!	!	!	!	!LO:TUP:a:problem:klamra łukowa	!	!	!	!	!	!	!	!	!	!	!	!	!	!	!	!	!	!	!
8A-\L	.	6 x	8a-/L	.	24ff\LL	.	.	.	.	.	.	.	.	.	8r	.	8r	.	8r	.	8r	.	8r	.
.	.	.	.	.	24ee-\	.	.	.	.	.	.	.	.	.	.	.	.	.	.	.	.	.	.	.
.	.	.	.	.	24ff\JJ	.	.	.	.	.	.	.	.	.	.	.	.	.	.	.	.	.	.	.
!!mixed beam:problem
!	!	!	!LO:TUP:b:problem:klamra łukowa	!	!LO:TUP:a:problem:klamra łukowa	!	!	!	!	!	!	!	!	!	!	!	!	!	!LO:TX:a:t=P:problem:mixed beam	!	!	!	!	!
8A-\	.	.	24cc/L	.	24aa-\LL	.	.	.	.	.	.	.	.	.	8f\L	.	8a-\L	.	8A-\L	.	8a-/L	.	8ff\L	.
.	.	.	24b-/	.	24gg\	.	.	.	.	.	.	.	.	.	.	.	.	.	.	.	.	.	.	.
.	.	.	24a-/JJ	.	24ff\JJ	.	.	.	.	.	.	.	.	.	.	.	.	.	.	.	.	.	.	.
8B-\	.	4 x	8g/L	.	8ee-\L	.	.	.	.	.	.	.	.	.	8e-\	.	8g\	.	8B-\	.	8g/	.	8ee-\	.
!	!	!	!	!	!	!	!	!	!	!	!	!	!	!	!LO:TX:a:t=Solo	!	!LO:TX:a:t=S&colon;	!	!	!	!LO:TX:a:t=Soli	!	!LO:TX:a:t=Soli	!
8BB-/J	.	9 x	8f/J	.	8dd\J	.	.	.	.	.	.	.	.	.	8B-\J	.	8f\J	.	8BB-/J	.	8f/J	.	8dd\J	.
!LO:LB:g=original	!	!	!	!	!	!	!	!	!	!	!	!	!	!	!	!	!	!	!	!	!	!	!	!
=9	=9	=9	=9	=9	=9	=9	=9-	=9	=9-	=9	=9	=9	=9	=9	=9	=9	=9	=9	=9	=9	=9	=9	=9	=9
!	!	!	!	!	!	!	!	!	!	!	!	!	!	!	!	!LO:DY:a:t=p&colon;	!	!LO:DY:a:rj:t=p&colon;	!LO:TX:a:t=Soli	!	!	!	!	!
4E-\	.	.	4g/	.	8ee-\	.	0r	.	0r	.	[>4g\	A-	[>4ee-\	A-	4G/	p	4e-\	p	8E-\L	.	4g/	.	4ee-\	.
.	.	.	.	.	8r	.	.	.	.	.	.	.	.	.	.	.	.	.	8E-\	.	.	.	.	.
4r	.	.	4r	.	4r	.	.	.	.	.	16g\LL]	.	16ee-\LL]	.	4G/	.	4e-\	.	8E-\	.	(<16g/LL	.	(>16ee-\LL	.
.	.	.	.	.	.	.	.	.	.	.	16a-\JJ	.	16ff\JJ	.	.	.	.	.	.	.	16a-/)	.	16ff\)	.
.	.	.	.	.	.	.	.	.	.	.	16b-\LL	-gnus	16gg\LL	-gnus	.	.	.	.	8E-\J	.	(<16b-/	.	(>16gg\	.
.	.	.	.	.	.	.	.	.	.	.	16g\JJ	.	16ee-\JJ	.	.	.	.	.	.	.	16g/JJ)	.	16ee-\JJ)	.
!	!	!	!	!	!LO:LB:g=original	!	!	!	!	!	!	!	!	!	!	!	!	!	!LO:LB:g=original	!	!	!	!	!
=10	=10	=10	=10	=10	=10	=10	=10-	=10	=10-	=10	=10	=10	=10	=10	=10	=10	=10	=10	=10	=10	=10	=10	=10	=10
!!mixed beam:problem
!	!LO:DY:a:t=p&colon;	!	!LO:N:vis=16	!LO:DY:a:t=p&colon;	!	!LO:DY:a	!	!	!	!	!	!	!	!	!	!	!	!	!LO:TX:a:t=P:problem:mixed beam	!	!	!	!	!
8r	p	.	8r	p	16r	p	.	.	.	.	16g\LL	De-	16ee-\LL	De-	8B-/L	.	8f\L	.	8B-\L	.	(<16g/LL	.	16ee-\LL	.
.	.	.	.	.	16d/LL	.	.	.	.	.	16f\JJ	.	16dd\JJ	.	.	.	.	.	.	.	16f/J)	.	16dd\J	.
8BB-/L	.	.	8d/	.	16f/	.	.	.	.	.	8f\	-i	8dd\	-i	8B-/J	.	8f\J	.	8BB-/J	.	8f'</J	.	8dd\J	.
.	.	.	.	.	16b-/JJ	.	.	.	.	.	.	.	.	.	.	.	.	.	.	.	.	.	.	.
8BB-/	.	.	16f/LL	.	16dd\LL	.	.	.	.	.	4r	.	4r	.	4r	.	4r	.	4r	.	4r	.	4r	.
.	.	.	16d/	.	16b-\	.	.	.	.	.	.	.	.	.	.	.	.	.	.	.	.	.	.	.
8BB-/J	.	.	16b-/	.	16ff\	.	.	.	.	.	.	.	.	.	.	.	.	.	.	.	.	.	.	.
.	.	.	16f/JJ	.	16dd\JJ	.	.	.	.	.	.	.	.	.	.	.	.	.	.	.	.	.	.	.
!	!	!	!	!	!	!	!	!	!	!	!	!	!	!	!	!	!	!	!	!	!LO:LB:g=original	!	!LO:LB:g=original	!
=11	=11	=11	=11	=11	=11	=11	=11-	=11	=11-	=11	=11	=11	=11	=11	=11	=11	=11	=11	=11	=11	=11	=11	=11	=11
*	*	*	*	*	*	*	*	*	*	*	*	*ij	*	*ij	*	*	*	*	*	*	*	*	*	*
4BB-/	.	.	4dd\	.	4bb-\	.	.	.	.	.	[>4f\	A-	[>4dd\	A-	4B-/	.	4f\	.	8BB-/L	.	4f/	.	4dd\	.
.	.	.	.	.	.	.	.	.	.	.	.	.	.	.	.	.	.	.	8BB-/	.	.	.	.	.
4r	.	.	4r	.	4r	.	.	.	.	.	16f\LL]	.	16dd\LL]	.	4B-/	.	4f\	.	8BB-/	.	(<16f/LL	.	(>16dd\LL	.
.	.	.	.	.	.	.	.	.	.	.	16g\JJ	.	16ee-\JJ	.	.	.	.	.	.	.	16g/)	.	16ee-\)	.
.	.	.	.	.	.	.	.	.	.	.	16a-\LL	-gnus	16ff\LL	-gnus	.	.	.	.	8BB-/J	.	(<16a-/	.	(>16ff\	.
.	.	.	.	.	.	.	.	.	.	.	16f\JJ	.	16dd\JJ	.	.	.	.	.	.	.	16f/JJ)	.	16dd\JJ)	.
!	!	!	!LO:LB:g=original	!	!	!	!	!	!	!	!	!	!	!LO:LB:g=original	!	!	!LO:LB:g=original	!	!	!	!	!	!	!
=12	=12	=12	=12	=12	=12	=12	=12-	=12	=12-	=12	=12	=12	=12	=12	=12	=12	=12	=12	=12	=12	=12	=12	=12	=12
!!mixed beam:problem
!	!	!	!	!	!	!	!	!	!	!	!	!	!	!	!	!	!	!	!LO:TX:a:t=P:problem:mixed beam	!	!	!	!	!
8r	.	.	16r	.	16r	.	.	.	.	.	16f\LL	De-	16dd\LL	De-	8G/L	.	8e-\L	.	8E-\L	.	(<16f/LL	.	(>16dd\LL	.
.	.	.	16B-/LL	.	16e-/LL	.	.	.	.	.	16g\JJ	.	16ee-\JJ	.	.	.	.	.	.	.	16g/J)	.	16ee-\J)	.
8E-\L	.	.	16e-/	.	16g/	.	.	.	.	.	8g\	-i	8ee-\	-i	8G/J	.	8e-\J	.	8EE-/J	.	8g'</J	.	8ee-'>\J	.
*	*	*	*	*	*	*	*	*	*	*	*	*Xij	*	*Xij	*	*	*	*	*	*	*	*	*	*
.	.	.	16g/JJ	.	16b-/JJ	.	.	.	.	.	.	.	.	.	.	.	.	.	.	.	.	.	.	.
8E-\	.	.	16b-\LL	.	16ee-\LL	.	.	.	.	.	4r	.	4r	.	4r	.	4r	.	4r	.	4r	.	4r	.
.	.	.	16g\	.	16b-\	.	.	.	.	.	.	.	.	.	.	.	.	.	.	.	.	.	.	.
8E-\J	.	.	16ee-\	.	16gg\	.	.	.	.	.	.	.	.	.	.	.	.	.	.	.	.	.	.	.
.	.	.	16b-\JJ	.	16ee-\JJ	.	.	.	.	.	.	.	.	.	.	.	.	.	.	.	.	.	.	.
!	!	!	!	!	!	!	!	!	!	!	!LO:LB:g=original	!	!LO:LB:g=original	!	!	!	!	!	!	!	!	!	!	!
=13	=13	=13	=13	=13	=13	=13	=13-	=13	=13-	=13	=13	=13	=13	=13	=13	=13	=13	=13	=13	=13	=13	=13	=13	=13
4E-\	.	.	4gg\	.	4bb-\	.	0r	.	0r	.	[>4g\	A-	[>4ee-\	A-	4G/	.	4e-\	.	8E-\L	.	4g/	.	4ee-\	.
.	.	.	.	.	.	.	.	.	.	.	.	.	.	.	.	.	.	.	8E-\	.	.	.	.	.
4r	.	.	4r	.	4r	.	.	.	.	.	16g\LL]	.	16ee-\LL]	.	4G/	.	4e-\	.	8E-\	.	(<16g/LL	.	(>16ee-\LL	.
.	.	.	.	.	.	.	.	.	.	.	16a-\JJ	.	16ff\JJ	.	.	.	.	.	.	.	16a-/)	.	16ff\)	.
.	.	.	.	.	.	.	.	.	.	.	16b-\LL	-gnus	16gg\LL	-gnus	.	.	.	.	8E-\J	.	(<16b-/	.	(>16gg\	.
.	.	.	.	.	.	.	.	.	.	.	16g\JJ	.	16ee-\JJ	.	.	.	.	.	.	.	16g/JJ)	.	16ee-\JJ)	.
=14	=14	=14	=14	=14	=14	=14	=14-	=14	=14-	=14	=14	=14	=14	=14	=14	=14	=14	=14	=14	=14	=14	=14	=14	=14
*	*	*	*	*	*	*	*	*	*	*	*	*	*	*	*	*	*	*	*tremolo	*	*	*	*	*
1r	.	.	1r	.	1r	.	.	.	.	.	16g\LL	De-	16ee-\LL	De-	4B-/	.	4f\	.	8BB-/L	.	(<16g/LL	.	(>16ee-\LL	.
.	.	.	.	.	.	.	.	.	.	.	16f\JJ	.	16dd\JJ	.	.	.	.	.	.	.	16f/JJ)	.	16dd\JJ)	.
.	.	.	.	.	.	.	.	.	.	.	4f\	-i	4dd\	-i	.	.	.	.	8BB-/	.	4f'</	.	4dd\	.
.	.	.	.	.	.	.	.	.	.	.	.	.	.	.	4B-/	.	4f\	.	8BB-/	.	.	.	.	.
.	.	.	.	.	.	.	.	.	.	.	16g\LL	qui	16ee-\LL	qui	.	.	.	.	8BB-/J	.	(<16g/LL	.	(>16ee-\LL	.
.	.	.	.	.	.	.	.	.	.	.	16a-\JJ	.	16ff\JJ	.	.	.	.	.	.	.	16a-/JJ)	.	16ff\JJ)	.
*	*	*	*	*	*	*	*	*	*	*	*	*	*	*	*	*	*	*	*Xtremolo	*	*	*	*	*
=15-	=15	=15	=15-	=15	=15-	=15	=15-	=15	=15-	=15	=15	=15	=15	=15	=15	=15	=15	=15	=15	=15	=15	=15	=15	=15
!!mixed beam:problem
!	!	!	!	!	!	!	!	!	!	!	!	!	!	!	!	!	!	!	!LO:TX:a:t=P:problem:mixed beam	!	!	!	!	!
.	.	.	.	.	.	.	.	.	.	.	8b-\	tol-	8gg\	tol-	8e-\L	.	8g\L	.	8E-\L	.	8b-'>\L	.	8gg\L	.
.	.	.	.	.	.	.	.	.	.	.	16cc\	-lis	16aa-\	-lis	8f\	.	8a-\	.	8A-\	.	(>16cc\L	.	(>16aa-\L	.
.	.	.	.	.	.	.	.	.	.	.	16a-\	pec-	16ff\	pec-	.	.	.	.	.	.	16a-\JJ)	.	16ff\JJ)	.
.	.	.	.	.	.	.	.	.	.	.	8g\	-ca-	8ee-\	-ca-	8e-\	.	8g\	.	8B-\	.	8g/L	.	8ee-\L	.
.	.	.	.	.	.	.	.	.	.	.	8f\	-ta	8dd\	-ta	8B-\J	.	8f\J	.	8BB-/J	.	8f/J	.	8dd\J	.
=16-	=16	=16	=16	=16	=16	=16	=16-	=16	=16-	=16	=16	=16	=16	=16	=16	=16	=16	=16	=16	=16	=16	=16	=16	=16
!LO:TX:a:t=tutti	!	!	!	!LO:DY:a	!	!LO:DY:a	!	!	!	!	!	!	!	!	!	!	!	!	!	!	!	!	!	!
2r	.	.	16r	f	16r	f	.	.	.	.	8g\	mun-	8ee-\	mun-	4G/	.	4e-\	.	4E-\	.	8g/L	.	8ee-\L	.
.	.	.	16ee-'>\LL	.	16gg'>\LL	.	.	.	.	.	.	.	.	.	.	.	.	.	.	.	.	.	.	.
.	.	.	(>16ee-\	.	(>16gg\	.	.	.	.	.	8g\	-di	8ee-\	-di	.	.	.	.	.	.	8g/J	.	8ee-\J	.
.	.	.	16b-\JJ)	.	16ee-\JJ)	.	.	.	.	.	.	.	.	.	.	.	.	.	.	.	.	.	.	.
!	!	!	!	!	!	!	!	!	!	!	!LO:TX:b:t=Verte	!	!	!	!	!	!	!	!	!	!	!	!	!LO:DY:a
.	.	.	(<16b-/LL	.	(>16ee-\LL	.	.	.	.	.	4r	.	4r	.	4r	.	4r	.	4r	.	4r	.	4r	f
.	.	.	16g/)	.	16b-\)	.	.	.	.	.	.	.	.	.	.	.	.	.	.	.	.	.	.	.
.	.	.	(<16g/	.	(>16b-\	.	.	.	.	.	.	.	.	.	.	.	.	.	.	.	.	.	.	.
.	.	.	16e-/JJ)	.	16g\JJ)	.	.	.	.	.	.	.	.	.	.	.	.	.	.	.	.	.	.	.
!	!	!	!	!	!	!	!	!	!	!	!	!LO:PB:g=original	!	!	!	!	!	!	!	!	!	!	!	!
=17	=17	=17	=17	=17	=17	=17	=17	=17	=17	=17	=17	=17	=17	=17	=17	=17	=17	=17	=17	=17	=17	=17	=17	=17
!	!	!	!	!	!	!	!	!	!	!	!	!	!	!	!	!LO:DY:a:rj:t=for	!	!LO:DY:a:rj:t=f&colon;	!	!LO:DY:a:t=for	!	!LO:DY:a	!	!
8E-\L	.	.	(<16f/LL	.	(<16f/LL	.	4E-\	par-	4e-\	par-	4g\	par-	4ee-\	par-	4e-\	f	4g\	f	8E-\L	f	4ee-\	f	4gg\	.
.	.	.	16g/)	.	16g/)	.	.	.	.	.	.	.	.	.	.	.	.	.	.	.	.	.	.	.
8E-\	.	.	16g'</	.	16g'</	.	.	.	.	.	.	.	.	.	.	.	.	.	8E-\	.	.	.	.	.
.	.	.	16g'</JJ	.	16g'</JJ	.	.	.	.	.	.	.	.	.	.	.	.	.	.	.	.	.	.	.
!	!	!	!	!	!LO:LB:g=original	!	!	!	!	!	!	!	!	!	!	!	!	!	!	!	!	!	!	!
8E-\	.	n4r: 2:	(<16an/LL	.	(<16an/LL	.	4E-\	-ce	4f\	-ce	4an\	-ce	4cc\	-ce	4f\	.	4f\	.	8E-\	.	4cc\	.	4aa\	.
.	.	.	16b-/)	.	16b-/)	.	.	.	.	.	.	.	.	.	.	.	.	.	.	.	.	.	.	.
8E-\J	.	.	(<16cc/	.	(<16cc/	.	.	.	.	.	.	.	.	.	.	.	.	.	8E-\J	.	.	.	.	.
.	.	.	16a/JJ)	.	16a/JJ)	.	.	.	.	.	.	.	.	.	.	.	.	.	.	.	.	.	.	.
!	!	!	!	!	!	!	!	!	!	!	!	!	!	!	!	!	!	!	!	!	!LO:LB:g=original	!	!LO:LB:g=original	!
=18	=18	=18	=18	=18	=18	=18	=18	=18	=18	=18	=18	=18	=18	=18	=18	=18	=18	=18	=18	=18	=18	=18	=18	=18
*	*	*	*	*	*	*	*	*	*	*	*	*	*	*	*	*	*	*	*tremolo	*	*2\right	*	*	*
!	!	!	!	!	!LO:SIC:v:s:t=an	!	!	!	!	!	!	!	!	!	!	!	!	!	!	!	!	!	!	!
8D\L	.	6: x	(<16an/LL	.	(>16a-\LL	.	4D\	no-	4f\	no-	4b-\	no-	4dd\	no-	2B-/	.	2f\	.	8D\L	.	2dd\	.	4bb-\	.
.	.	.	16b-/)	.	16b-\)	.	.	.	.	.	.	.	.	.	.	.	.	.	.	.	.	.	.	.
8D\	.	.	16b-'</	.	16b-'>\	.	.	.	.	.	.	.	.	.	.	.	.	.	8D\	.	.	.	.	.
.	.	.	16b-'</JJ	.	16b-'>\JJ	.	.	.	.	.	.	.	.	.	.	.	.	.	.	.	.	.	.	.
!	!	!	!LO:LB:g=original	!	!	!	!	!	!	!	!	!	!	!	!	!	!	!	!	!	!	!	!	!
8D\	.	.	(>16ff\LL	.	(>16ff\LL	.	4D\	-bis	4f\	-bis	4b-\	-bis	4dd\	-bis	.	.	.	.	8D\	.	.	.	4ff\	.
.	.	.	16dd\)	.	16dd\)	.	.	.	.	.	.	.	.	.	.	.	.	.	.	.	.	.	.	.
8D\J	.	.	(>16cc\	.	(>16cc\	.	.	.	.	.	.	.	.	.	.	.	.	.	8D\J	.	.	.	.	.
.	.	.	16b-\JJ)	.	16b-\JJ)	.	.	.	.	.	.	.	.	.	.	.	.	.	.	.	.	.	.	.
*	*	*	*	*	*	*	*	*	*	*	*	*	*	*	*	*	*	*	*Xtremolo	*	*	*	*	*
!	!	!	!LO:LB:g=original	!	!	!	!	!	!	!	!	!	!LO:LB:g=original	!	!	!	!	!	!	!	!	!	!	!
=19	=19	=19	=19	=19	=19	=19	=19	=19	=19	=19	=19	=19	=19	=19	=19	=19	=19	=19	=19	=19	=19	=19	=19	=19
*	*	*	*	*	*	*	*	*ij	*	*ij	*	*ij	*	*	*	*	*	*	*	*	*	*	*	*
8E-\L	.	x 2	(<16a-/LL	.	(<16a-/LL	.	4E-\	par-	4e-\	par-	4g\	par-	4ee-\	par-	4e-\	.	4g\	.	8E-\L	.	4ee-\	.	4gg\	.
.	.	.	16g/)	.	16g/)	.	.	.	.	.	.	.	.	.	.	.	.	.	.	.	.	.	.	.
8E-\	.	.	16g'</	.	16g'</	.	.	.	.	.	.	.	.	.	.	.	.	.	8E-\	.	.	.	.	.
.	.	.	16g'</JJ	.	16g'</JJ	.	.	.	.	.	.	.	.	.	.	.	.	.	.	.	.	.	.	.
8E-\	.	n4r: 2:	(<16an/LL	.	(<16an/LL	.	4E-\	-ce	4f\	-ce	4an\	-ce	4cc\	-ce	4f\	.	4f\	.	8E-\	.	4cc\	.	4aa\	.
.	.	.	16b-/)	.	16b-/)	.	.	.	.	.	.	.	.	.	.	.	.	.	.	.	.	.	.	.
8E-\J	.	.	(<16cc/	.	(<16cc/	.	.	.	.	.	.	.	.	.	.	.	.	.	8E-\J	.	.	.	.	.
.	.	.	16a/JJ)	.	16a/JJ)	.	.	.	.	.	.	.	.	.	.	.	.	.	.	.	.	.	.	.
!LO:LB:g=original	!	!	!	!	!	!	!	!	!	!	!	!	!	!	!	!	!	!	!	!	!	!	!	!
=20	=20	=20	=20	=20	=20	=20	=20	=20	=20	=20	=20	=20	=20	=20	=20	=20	=20	=20	=20	=20	=20	=20	=20	=20
*	*	*	*	*	*	*	*	*	*	*	*	*	*	*	*	*	*	*	*tremolo	*	*	*	*	*
8D\L	.	6: x	(>16a-\LL	.	(>16a-\LL	.	4D\	no-	4f\	no-	4b-\	no-	4dd\	no-	2B-/	.	2f\	.	8D\L	.	2dd\	.	4bb-\	.
.	.	.	16b-\)	.	16b-\)	.	.	.	.	.	.	.	.	.	.	.	.	.	.	.	.	.	.	.
8D\	.	.	16b-'>\	.	16b-'>\	.	.	.	.	.	.	.	.	.	.	.	.	.	8D\	.	.	.	.	.
.	.	.	16b-'>\JJ	.	16b-'>\JJ	.	.	.	.	.	.	.	.	.	.	.	.	.	.	.	.	.	.	.
8D\	.	.	(>16ff\LL	.	(>16ff\LL	.	4D\	-bis	4f\	-bis	4b-\	-bis	4dd\	-bis	.	.	.	.	8D\	.	.	.	4ff\	.
.	.	.	16dd\)	.	16dd\)	.	.	.	.	.	.	.	.	.	.	.	.	.	.	.	.	.	.	.
8D\J	.	.	(>16cc\	.	(>16cc\	.	.	.	.	.	.	.	.	.	.	.	.	.	8D\J	.	.	.	.	.
.	.	.	16b-\JJ)	.	16b-\JJ)	.	.	.	.	.	.	.	.	.	.	.	.	.	.	.	.	.	.	.
*	*	*	*	*	*	*	*	*Xij	*	*Xij	*	*Xij	*	*	*	*	*	*	*	*	*	*	*	*
=21	=21	=21	=21	=21	=21	=21	=21	=21	=21	=21	=21	=21	=21	=21	=21	=21	=21	=21	=21	=21	=21	=21	=21	=21
*tremolo	*	*	*	*	*	*	*	*ij	*	*ij	*	*ij	*	*ij	*2\right	*	*	*	*	*	*	*	*	*
8AAn/L	.	6 5	(>16b-\LL	.	(>16b-\LL	.	4An\	par-	4f\	par-	4cc\	par-	4ee-\	par-	2f\	.	2f\	.	8AAn/L	.	2cc\	.	2ee-\	.
.	.	.	16cc\)	.	16cc\)	.	.	.	.	.	.	.	.	.	.	.	.	.	.	.	.	.	.	.
8AAn/	.	.	16cc'>\	.	16cc'>\	.	.	.	.	.	.	.	.	.	.	.	.	.	8AAn/	.	.	.	.	.
.	.	.	16cc'>\JJ	.	16cc'>\JJ	.	.	.	.	.	.	.	.	.	.	.	.	.	.	.	.	.	.	.
8AAn/	.	.	(>16ee-\LL	.	(>16ee-\LL	.	4A\	-ce	4f\	-ce	4cc\	-ce	4ee-\	-ce	.	.	.	.	8AAn/	.	.	.	.	.
.	.	.	32dd\L	.	32dd\L	.	.	.	.	.	.	.	.	.	.	.	.	.	.	.	.	.	.	.
.	.	.	32ee-\JJJ)	.	32ee-\JJJ)	.	.	.	.	.	.	.	.	.	.	.	.	.	.	.	.	.	.	.
8AAn/J	.	.	16ff\LL	.	16ff\LL	.	.	.	.	.	.	.	.	.	.	.	.	.	8AAn/J	.	.	.	.	.
.	.	.	16ee-\JJ	.	16ee-\JJ	.	.	.	.	.	.	.	.	.	.	.	.	.	.	.	.	.	.	.
!	!	!	!	!	!LO:LB:g=original	!	!	!	!	!	!	!	!	!	!	!	!	!	!	!	!	!	!	!
=22	=22	=22	=22	=22	=22	=22	=22	=22	=22	=22	=22	=22	=22	=22	=22	=22	=22	=22	=22	=22	=22	=22	=22	=22
8BB-/L	.	.	(>16ee-\LL	.	(>16ee-\LL	.	4B-\	no-	4f\	no-	4b-\	no-	4dd\	no-	2B-/	.	2f\	.	8BB-/L	.	2b-\	.	2dd\	.
.	.	.	16dd\)	.	16dd\)	.	.	.	.	.	.	.	.	.	.	.	.	.	.	.	.	.	.	.
8BB-/	.	.	16dd'>\	.	16dd'>\	.	.	.	.	.	.	.	.	.	.	.	.	.	8BB-/	.	.	.	.	.
.	.	.	16dd'>\JJ	.	16dd'>\JJ	.	.	.	.	.	.	.	.	.	.	.	.	.	.	.	.	.	.	.
8BB-/	.	.	8dd\L	.	16ff\LL	.	4B-\	-bis	4f\	-bis	4b-\	-bis	4dd\	-bis	.	.	.	.	8BB-/	.	.	.	.	.
*	*	*	*	*	*	*	*	*Xij	*	*Xij	*	*Xij	*	*Xij	*	*	*	*	*	*	*	*	*	*
.	.	.	.	.	32ee-\L	.	.	.	.	.	.	.	.	.	.	.	.	.	.	.	.	.	.	.
.	.	.	.	.	32ff\JJJ	.	.	.	.	.	.	.	.	.	.	.	.	.	.	.	.	.	.	.
8BB-/J	.	.	8dd\J	.	16gg\LL	.	.	.	.	.	.	.	.	.	.	.	.	.	8BB-/J	.	.	.	.	.
.	.	.	.	.	16ff\JJ	.	.	.	.	.	.	.	.	.	.	.	.	.	.	.	.	.	.	.
*Xtremolo	*	*	*	*	*	*	*	*	*	*	*	*	*	*	*	*	*	*	*Xtremolo	*	*	*	*	*
!	!	!	!LO:LB:g=original	!	!	!	!LO:LB:g=original	!	!LO:LB:g=original	!	!	!	!	!	!	!	!	!	!	!	!	!	!	!
=23	=23	=23	=23	=23	=23	=23	=23	=23	=23	=23	=23	=23	=23	=23	=23	=23	=23	=23	=23	=23	=23	=23	=23	=23
!!mixed beam:problem
!LO:TX:a:t=P:problem:mixed beam	!	!	!	!	!LO:TUP:a:problem:klamra łukowa	!	!	!	!	!	!	!	!	!	!	!	!	!	!LO:TX:a:t=P:problem:mixed beam	!	!	!	!	!
8E-\L	.	6 x	8cc\L	.	24ee-\LL	.	(>4E-\	Do-	4g\	Do-	(>4cc\	Do-	4ee-\	Do-	4e-\	.	4g\	.	8E-\L	.	4cc\	.	4ee-\	.
.	.	.	.	.	24dd\	.	.	.	.	.	.	.	.	.	.	.	.	.	.	.	.	.	.	.
.	.	.	.	.	24ee-\JJ	.	.	.	.	.	.	.	.	.	.	.	.	.	.	.	.	.	.	.
!	!	!	!	!	!LO:TUP:a:problem:klamra łukowa	!	!	!	!	!	!	!	!	!	!	!	!	!	!	!	!	!	!	!
8E-\	.	.	8cc\	.	24gg\LL	.	.	.	.	.	.	.	.	.	.	.	.	.	8E-\	.	.	.	.	.
.	.	.	.	.	24ff\	.	.	.	.	.	.	.	.	.	.	.	.	.	.	.	.	.	.	.
.	.	.	.	.	24ee-\JJ	.	.	.	.	.	.	.	.	.	.	.	.	.	.	.	.	.	.	.
!	!	!	!	!	!	!	!	!	!	!	!	!	!	!	!	!	!	!	!	!	!LO:TX:a:t=Soli	!	!LO:TX:a:t=Soli	!
8F\	.	n4r x	8b-\	.	8dd\L	.	8F\)	.	8f\	.	8b-\)	.	8dd\	.	8f\L	.	8f\L	.	8F\	.	8b-\L	.	8dd\L	.
8FF/J	.	.	8an\J	.	8cc\J	.	8F\	-mi-	8f\	-mi-	8an\	-mi-	8cc\	-mi-	8f\J	.	8f\J	.	8FF/J	.	8a\J	.	8cc\J	.
!	!	!	!	!	!	!	!	!	!	!	!	!LO:LB:g=original	!	!	!	!	!LO:LB:g=original	!	!	!	!	!	!	!
=24	=24	=24	=24	=24	=24	=24	=24	=24	=24	=24	=24	=24	=24	=24	=24	=24	=24	=24	=24	=24	=24	=24	=24	=24
!	!	!	!	!	!	!	!	!	!	!	!	!	!	!	!LO:TX:a:t=Soli	!	!LO:TX:a:t=Soli	!	!LO:TX:a:t=Soli	!	!	!	!	!
4BB-/	.	.	4b-\	.	4dd\	.	4BB-/	-ne	4f\	-ne	4b-\	-ne	4dd\	-ne	4B-/	.	4f\	.	8BB-/L	.	(>16b-\LL	.	(>16dd\LL	.
.	.	.	.	.	.	.	.	.	.	.	.	.	.	.	.	.	.	.	.	.	16dd\)	.	16ff\)	.
.	.	.	.	.	.	.	.	.	.	.	.	.	.	.	.	.	.	.	8BB-/J	.	16dd'>\	.	16ff'>\	.
.	.	.	.	.	.	.	.	.	.	.	.	.	.	.	.	.	.	.	.	.	16dd'>\JJ	.	16ff'>\JJ	.
!LO:TX:a:t=Solo	!	!	!	!	!	!	!	!	!	!	!	!	!	!	!	!	!	!	!LO:TX:a:t=P:problem:mixed beam	!	!	!	!	!
4r	.	.	4r	.	4r	.	4r	.	4r	.	4r	.	4r	.	16r	.	16r	.	8F\L	.	(>8.a\L	.	(>8.cc\L	.
.	.	.	.	.	.	.	.	.	.	.	.	.	.	.	16f\LL	.	16f'>\LL	.	.	.	.	.	.	.
.	.	.	.	.	.	.	.	.	.	.	.	.	.	.	16f\	.	16f'>\	.	8FF/J	.	.	.	.	.
.	.	.	.	.	.	.	.	.	.	.	.	.	.	.	16f\JJ	.	16f'>\JJ	.	.	.	32b-\LL	.	32dd\LL	.
.	.	.	.	.	.	.	.	.	.	.	.	.	.	.	.	.	.	.	.	.	32cc\JJJ)	.	32ee-\JJJ)	.
=25	=25	=25	=25	=25	=25	=25	=25	=25	=25	=25	=25	=25	=25	=25	=25	=25	=25	=25	=25	=25	=25	=25	=25	=25
!	!LO:DY:a:t=p&colon;	!	!	!	!	!	!LO:TX:a:t=Solo&colon;	!	!	!	!	!	!	!	!	!	!	!	!	!	!	!	!	!
1r	p	.	1r	.	1r	.	1r	.	0r	.	0r	.	0r	.	4B-/	.	4f\	.	8BB-/L	.	(>16b-\LL	.	(>16dd\LL	.
.	.	.	.	.	.	.	.	.	.	.	.	.	.	.	.	.	.	.	.	.	16dd\)	.	16ff\)	.
.	.	.	.	.	.	.	.	.	.	.	.	.	.	.	.	.	.	.	8BB-/J	.	16dd'>\	.	16ff'>\	.
.	.	.	.	.	.	.	.	.	.	.	.	.	.	.	.	.	.	.	.	.	16dd'>\JJ	.	16ff'>\JJ	.
!!mixed beam:problem
!	!	!	!	!	!	!	!	!	!	!	!	!	!	!	!	!	!	!	!LO:TX:a:t=P:problem:mixed beam	!	!	!	!	!
.	.	.	.	.	.	.	.	.	.	.	.	.	.	.	16r	.	16r	.	8F\L	.	(>8.a\L	.	(>8.cc\L	.
.	.	.	.	.	.	.	.	.	.	.	.	.	.	.	16f\LL	.	16f\LL	.	.	.	.	.	.	.
.	.	.	.	.	.	.	.	.	.	.	.	.	.	.	16f\	.	16f\	.	8FF/J	.	.	.	.	.
.	.	.	.	.	.	.	.	.	.	.	.	.	.	.	16f\JJ	.	16f\JJ	.	.	.	32b-\LL	.	32dd\LL	.
.	.	.	.	.	.	.	.	.	.	.	.	.	.	.	.	.	.	.	.	.	32cc\JJJ)	.	32ee-\JJJ)	.
!	!	!	!	!	!	!	!	!	!	!	!	!	!	!	!	!	!	!	!	!	!LO:LB:g=original	!	!	!
=26-	=26	=26	=26-	=26	=26-	=26	=26-	=26	=26-	=26	=26-	=26	=26-	=26	=26	=26	=26	=26	=26	=26	=26	=26	=26	=26
.	.	.	.	.	.	.	.	.	.	.	.	.	.	.	4B-/	.	4f\	.	8BB-/L	.	(>16b-\LL	.	(>16dd\LL	.
.	.	.	.	.	.	.	.	.	.	.	.	.	.	.	.	.	.	.	.	.	16dd\)	.	16ff\)	.
.	.	.	.	.	.	.	.	.	.	.	.	.	.	.	.	.	.	.	8BB-/	.	16dd'>\	.	16ff'>\	.
.	.	.	.	.	.	.	.	.	.	.	.	.	.	.	.	.	.	.	.	.	16dd'>\JJ	.	16ff'>\JJ	.
.	.	.	.	.	.	.	.	.	.	.	.	.	.	.	8B-/L	.	8f\L	.	8BB-/	.	(>16dd\LL	.	(>16bb-\LL	.
.	.	.	.	.	.	.	.	.	.	.	.	.	.	.	.	.	.	.	.	.	16ff\)	.	16aa\)	.
.	.	.	.	.	.	.	.	.	.	.	.	.	.	.	8B-/J	.	8f\J	.	8BB-/J	.	(>16ee-\	.	(>16gg\	.
.	.	.	.	.	.	.	.	.	.	.	.	.	.	.	.	.	.	.	.	.	16dd\JJ)	.	16ff\JJ)	.
!	!	!	!	!	!	!	!	!	!	!	!	!	!	!	!	!	!	!	!LO:LB:g=original	!	!	!	!	!
=27	=27	=27	=27	=27	=27	=27	=27-	=27	=27-	=27	=27-	=27	=27-	=27	=27	=27	=27	=27	=27	=27	=27	=27	=27	=27
!!mixed beam:problem
!	!	!	!	!LO:DY:a:t=p&colon;	!	!LO:DY:a:t=p&colon;	!	!	!	!	!	!	!	!	!	!	!	!	!LO:TX:a:t=P:problem:mixed beam	!	!	!	!	!
8r	.	.	8r	p	8r	p	2r	.	.	.	.	.	.	.	8e-\L	.	4g\	.	8E-\L	.	8ee-'>\L	.	8gg\L	.
!!mixed beam:problem
!LO:TX:a:t=P:problem:mixed beam	!	!	!	!	!	!	!	!	!	!	!	!	!	!	!	!	!	!	!LO:TUP:a:problem:klamra łukowa	!	!LO:TUP:a:problem:klamra łukowa	!	!LO:TUP:a:problem:klamra łukowa	!
8E-\L	.	6 x	8e-/L	.	8e-/L	.	.	.	.	.	.	.	.	.	8e-\	.	.	.	8E-\	.	24ee-\L	.	24gg\L	.
.	.	.	.	.	.	.	.	.	.	.	.	.	.	.	.	.	.	.	.	.	24dd\	.	24ff\	.
.	.	.	.	.	.	.	.	.	.	.	.	.	.	.	.	.	.	.	.	.	24cc\JJ	.	24ee-\JJ	.
8F\	.	n4r x	8d/	.	8d/	.	.	.	.	.	.	.	.	.	8f\	.	8f\L	.	8F\	.	8b-\L	.	8dd\L	.
8FF/J	.	.	8c/J	.	8c/J	.	.	.	.	.	.	.	.	.	8f\J	.	8f\J	.	8FF/J	.	8a\J	.	8cc\J	.
=28	=28	=28	=28	=28	=28	=28	=28	=28	=28-	=28	=28-	=28	=28-	=28	=28	=28	=28	=28	=28	=28	=28	=28	=28	=28
8BB-/L	.	.	8d/L	.	8d/L	.	8.BB-/L	Ag-	.	.	.	.	.	.	4B-/	.	4f\	.	4BB-/	.	4b-\	.	4dd\	.
8BB-/	.	.	8d/	.	8f/	.	.	.	.	.	.	.	.	.	.	.	.	.	.	.	.	.	.	.
.	.	.	.	.	.	.	32C/LL	.	.	.	.	.	.	.	.	.	.	.	.	.	.	.	.	.
.	.	.	.	.	.	.	32D/JJJ	.	.	.	.	.	.	.	.	.	.	.	.	.	.	.	.	.
8BB-/	.	.	8d/	.	8f/	.	16E-\LL	.	.	.	.	.	.	.	4r	.	4r	.	4r	.	4r	.	4r	.
.	.	.	.	.	.	.	16F\JJ	.	.	.	.	.	.	.	.	.	.	.	.	.	.	.	.	.
8BB-/J	.	.	8d/J	.	8f/J	.	16G\LL	-nus	.	.	.	.	.	.	.	.	.	.	.	.	.	.	.	.
.	.	.	.	.	.	.	16An\JJ	.	.	.	.	.	.	.	.	.	.	.	.	.	.	.	.	.
=29	=29	=29	=29	=29	=29	=29	=29	=29	=29-	=29	=29-	=29	=29-	=29	=29	=29	=29	=29	=29	=29	=29	=29	=29	=29
*	*	*	*tremolo	*	*	*	*	*	*	*	*	*	*	*	*	*	*	*	*	*	*	*	*	*
*	*	*	*	*	*tremolo	*	*	*	*	*	*	*	*	*	*	*	*	*	*	*	*	*	*	*
!	!	!	!	!	!	!	!	!	!	!	!	!	!	!	!	!	!	!	!	!	!	!	!LO:TX:a:t=Soli	!
8BB-/L	.	.	8d/L	.	8f/L	.	8.B-\L	De-	0r	.	0r	.	0r	.	0r	.	0r	.	0r	.	0r	.	0r	.
8BB-/	.	.	8d/	.	8f/	.	.	.	.	.	.	.	.	.	.	.	.	.	.	.	.	.	.	.
.	.	.	.	.	.	.	32d\LL	.	.	.	.	.	.	.	.	.	.	.	.	.	.	.	.	.
.	.	.	.	.	.	.	32c\JJJ	.	.	.	.	.	.	.	.	.	.	.	.	.	.	.	.	.
8D/	.	6: x	8d/	.	8f/	.	8B-\	-i	.	.	.	.	.	.	.	.	.	.	.	.	.	.	.	.
8D/J	.	.	8d/J	.	8f/J	.	8B-\	qui	.	.	.	.	.	.	.	.	.	.	.	.	.	.	.	.
*	*	*	*	*	*Xtremolo	*	*	*	*	*	*	*	*	*	*	*	*	*	*	*	*	*	*	*
!LO:LB:g=original	!	!	!	!	!LO:LB:g=original	!	!	!	!	!	!	!	!	!	!	!	!	!	!	!	!	!	!	!
=30	=30	=30	=30	=30	=30	=30	=30	=30	=30-	=30	=30-	=30	=30-	=30	=30-	=30	=30-	=30	=30-	=30	=30-	=30	=30-	=30
8E-\L	.	6 x	8c/L	.	8g/L	.	16B-\LL	tol-	.	.	.	.	.	.	.	.	.	.	.	.	.	.	.	.
.	.	.	.	.	.	.	16c\JJ	.	.	.	.	.	.	.	.	.	.	.	.	.	.	.	.	.
8E-\	.	.	8c/	.	8g/	.	4c\	-lis	.	.	.	.	.	.	.	.	.	.	.	.	.	.	.	.
8F\	.	n: x	8c/	.	8an/	.	.	.	.	.	.	.	.	.	.	.	.	.	.	.	.	.	.	.
8F\J	.	.	8c/J	.	8a/J	.	8An\	pec-	.	.	.	.	.	.	.	.	.	.	.	.	.	.	.	.
*	*	*	*Xtremolo	*	*	*	*	*	*	*	*	*	*	*	*	*	*	*	*	*	*	*	*	*
!	!	!	!	!	!	!	!LO:LB:g=original	!	!	!	!	!	!	!	!	!	!	!	!	!	!	!	!	!
=31	=31	=31	=31	=31	=31	=31	=31	=31	=31-	=31	=31-	=31	=31-	=31	=31-	=31	=31-	=31	=31-	=31	=31-	=31	=31-	=31
8G\L	.	.	8d/L	.	8b-/L	.	16A-\LL	-ca-	.	.	.	.	.	.	.	.	.	.	.	.	.	.	.	.
.	.	.	.	.	.	.	16B-\JJ	.	.	.	.	.	.	.	.	.	.	.	.	.	.	.	.	.
8G\	.	.	8d/	.	8b-/	.	4B-\	-ta	.	.	.	.	.	.	.	.	.	.	.	.	.	.	.	.
8D\	.	6 x	8B-/	.	8f/	.	.	.	.	.	.	.	.	.	.	.	.	.	.	.	.	.	.	.
8D\J	.	.	8B-/J	.	8f/J	.	8B-\	qui	.	.	.	.	.	.	.	.	.	.	.	.	.	.	.	.
=32	=32	=32	=32	=32	=32	=32	=32	=32	=32-	=32	=32-	=32	=32-	=32	=32-	=32	=32-	=32	=32-	=32	=32-	=32	=32-	=32
*	*	*	*tremolo	*	*	*	*	*	*	*	*	*	*	*	*	*	*	*	*	*	*	*	*	*
8E-\L	.	6 x	8c/L	.	8g/L	.	16B-\LL	tol-	.	.	.	.	.	.	.	.	.	.	.	.	.	.	.	.
.	.	.	.	.	.	.	16c\JJ	.	.	.	.	.	.	.	.	.	.	.	.	.	.	.	.	.
8E-\	.	.	8c/	.	8g/	.	4c\	-lis	.	.	.	.	.	.	.	.	.	.	.	.	.	.	.	.
8F\	.	n: x	8c/	.	8an/	.	.	.	.	.	.	.	.	.	.	.	.	.	.	.	.	.	.	.
*	*	*	*	*	*	*	*	*ij	*	*	*	*	*	*	*	*	*	*	*	*	*	*	*	*
8F\J	.	.	8c/J	.	8a/J	.	8An\	qui	.	.	.	.	.	.	.	.	.	.	.	.	.	.	.	.
*	*	*	*Xtremolo	*	*	*	*	*	*	*	*	*	*	*	*	*	*	*	*	*	*	*	*	*
!	!	!	!LO:LB:g=original	!	!	!	!	!	!	!	!	!	!	!	!	!	!	!	!	!	!	!	!	!
=33	=33	=33	=33	=33	=33	=33	=33	=33	=33-	=33	=33-	=33	=33-	=33	=33-	=33	=33-	=33	=33-	=33	=33-	=33	=33-	=33
8BB-/L	.	.	8d/L	.	8b-\L	.	8B-\	tol-	1r	.	1r	.	1r	.	1r	.	1r	.	1r	.	1r	.	1r	.
16D'</L	.	.	16d/L	.	16dd\L	.	16d\	-lis	.	.	.	.	.	.	.	.	.	.	.	.	.	.	.	.
*	*	*	*	*	*	*	*	*Xij	*	*	*	*	*	*	*	*	*	*	*	*	*	*	*	*
16F'</JJ	.	.	16f/JJ	.	16ff\JJ	.	16f\	pec-	.	.	.	.	.	.	.	.	.	.	.	.	.	.	.	.
16E-'</LL	.	.	16e-/LL	.	16ee-\LL	.	16e-\LL	-ca-	.	.	.	.	.	.	.	.	.	.	.	.	.	.	.	.
16D'</	.	.	16d/	.	16dd\	.	16d\JJ	.	.	.	.	.	.	.	.	.	.	.	.	.	.	.	.	.
16C'</	.	.	16c/	.	16cc\	.	16c\LL	-ta	.	.	.	.	.	.	.	.	.	.	.	.	.	.	.	.
16BB-'</JJ	.	.	16B-/JJ	.	16b-\JJ	.	16B-\JJ	.	.	.	.	.	.	.	.	.	.	.	.	.	.	.	.	.
=34	=34	=34	=34	=34	=34	=34	=34	=34	=34-	=34	=34-	=34	=34-	=34	=34-	=34	=34-	=34	=34-	=34	=34-	=34	=34-	=34
!!mixed beam:problem
!LO:TX:a:t=P:problem:mixed beam	!	!	!	!	!	!	!	!	!	!	!	!	!	!	!	!	!	!	!LO:TX:b:t=Verte	!	!	!	!	!
8F\L	.	.	8f/	.	8ff\	.	8f\	mun-	.	.	.	.	.	.	.	.	.	.	.	.	.	.	.	.
8FF/J	.	.	16r	.	16r	.	8F\	-di	.	.	.	.	.	.	.	.	.	.	.	.	.	.	.	.
.	.	.	16a-/	.	16cc\	.	.	.	.	.	.	.	.	.	.	.	.	.	.	.	.	.	.	.
8r	.	.	16a-\LL	.	16cc\LL	.	4r	.	.	.	.	.	.	.	.	.	.	.	.	.	.	.	.	.
.	.	.	16b-\	.	16dd\	.	.	.	.	.	.	.	.	.	.	.	.	.	.	.	.	.	.	.
8F\	.	n X	16b-\	.	16dd\	.	.	.	.	.	.	.	.	.	.	.	.	.	.	.	.	.	.	.
.	.	.	16cc\JJ	.	16ee-\JJ	.	.	.	.	.	.	.	.	.	.	.	.	.	.	.	.	.	.	.
!	!	!	!	!	!	!	!	!	!	!	!	!	!	!	!	!	!	!	!LO:PB:g=original	!	!	!	!	!
=35	=35	=35	=35	=35	=35	=35	=35	=35	=35	=35	=35	=35	=35	=35	=35	=35	=35	=35	=35	=35	=35	=35	=35	=35
!	!	!	!	!	!	!	!	!	!	!	!	!	!	!	!LO:TX:a:t=Soli	!	!LO:TX:a:t=Soli	!	!LO:TX:a:t=Soli	!	!LO:TX:a:t=Soli	!	!	!
4BB-/	.	.	4b-\	.	4dd\	.	8r	.	8r	.	8r	.	8r	.	8r	.	8r	.	8r	.	16r	.	16r	.
.	.	.	.	.	.	.	.	.	.	.	.	.	.	.	.	.	.	.	.	.	16b-'>\LL	.	16dd'>\LL	.
.	.	.	.	.	.	.	8B-\	Ex-	8f\	Ex-	8b-\	Ex-	8dd\	Ex-	8B-/L	.	8f\L	.	8BB-/L	.	16b-'>\	.	16dd'>\	.
.	.	.	.	.	.	.	.	.	.	.	.	.	.	.	.	.	.	.	.	.	16b-'>\JJ	.	16dd'>\JJ	.
4r	.	.	4r	.	4r	.	4B-\	-au-	4f\	-au-	16b-\LL	-au-	16dd\LL	-au-	8B-/	.	8f\	.	8BB-/	.	(>16b-\LL	.	(>16dd\LL	.
.	.	.	.	.	.	.	.	.	.	.	16an\	.	16cc\	.	.	.	.	.	.	.	16a\)	.	16cc\)	.
.	.	.	.	.	.	.	.	.	.	.	16b-\	.	16dd\	.	8B-/J	.	8f\J	.	8BB-/J	.	(>16b-\	.	(>16dd\	.
.	.	.	.	.	.	.	.	.	.	.	16cc\JJ	.	16ee-\JJ	.	.	.	.	.	.	.	16cc\JJ)	.	16ee-\JJ)	.
!	!	!	!	!	!LO:LB:g=original	!	!LO:LB:g=original	!	!	!	!	!	!LO:LB:g=original	!	!LO:LB:g=original	!	!	!	!	!	!	!	!	!
=36	=36	=36	=36	=36	=36	=36	=36	=36	=36	=36	=36	=36	=36	=36	=36	=36	=36	=36	=36	=36	=36	=36	=36	=36
8r	.	.	16r	.	16r	.	4B-\	-di	4f\	-di	4b-\	-di	4dd\	-di	4B-/	.	4f\	.	4BB-/	.	4b-\	.	4dd'>\	.
.	.	.	16b-\LL	.	16dd\LL	.	.	.	.	.	.	.	.	.	.	.	.	.	.	.	.	.	.	.
8B-\L	.	.	16b-\	.	16dd\	.	.	.	.	.	.	.	.	.	.	.	.	.	.	.	.	.	.	.
.	.	.	16b-\JJ	.	16dd\JJ	.	.	.	.	.	.	.	.	.	.	.	.	.	.	.	.	.	.	.
!	!	!	!LO:TUP:a:problem:klamra łukowa	!	!	!	!	!	!	!	!	!	!	!	!	!	!	!	!	!	!	!	!	!
8B-\	.	.	24b-\LL	.	24dd\LL	.	4r	.	4r	.	4r	.	4r	.	4r	.	4r	.	4r	.	4r	.	4r	.
.	.	.	24a-\	.	24cc\	.	.	.	.	.	.	.	.	.	.	.	.	.	.	.	.	.	.	.
.	.	.	24b-\JJ	.	24dd\JJ	.	.	.	.	.	.	.	.	.	.	.	.	.	.	.	.	.	.	.
!	!	!	!LO:TUP:a:problem:klamra łukowa	!	!	!	!	!	!	!	!	!	!	!	!	!	!	!	!	!	!	!	!	!
8B-\J	.	.	24cc\LL	.	24ee-\LL	.	.	.	.	.	.	.	.	.	.	.	.	.	.	.	.	.	.	.
.	.	.	24b-\	.	24dd\	.	.	.	.	.	.	.	.	.	.	.	.	.	.	.	.	.	.	.
.	.	.	24a-\JJ	.	24cc\JJ	.	.	.	.	.	.	.	.	.	.	.	.	.	.	.	.	.	.	.
=37	=37	=37	=37	=37	=37	=37	=37	=37	=37	=37	=37	=37	=37	=37	=37	=37	=37	=37	=37	=37	=37	=37	=37	=37
4B-\	.	.	4b-\	.	4dd\	.	8r	.	8r	.	8r	.	8r	.	8r	.	4f\	.	8r	.	16r	.	16r	.
.	.	.	.	.	.	.	.	.	.	.	.	.	.	.	.	.	.	.	.	.	16b-'>\LL	.	16dd'>\LL	.
*	*	*	*	*	*	*	*	*ij	*	*ij	*	*ij	*	*	*	*	*	*	*	*	*	*	*	*
.	.	.	.	.	.	.	8B-\	Ex-	8f\	Ex-	8b-\	Ex-	8cc\	Ex	8B-/L	.	.	.	8B-\L	.	16b-'>\	.	16dd'>\	.
.	.	.	.	.	.	.	.	.	.	.	.	.	.	.	.	.	.	.	.	.	16b-'>\JJ	.	16dd'>\JJ	.
!	!	!	!	!	!	!	!	!	!	!	!	!	!	!	!	!	!	!	!	!	!LO:LB:g=original	!	!LO:LB:g=original	!
4r	.	.	4r	.	4r	.	4B-\	-au-	4f\	-au-	16b-\LL	-au-	16dd\LL	au-	8B-/	.	8f\L	.	8B-\	.	(>16b-\LL	.	(>16dd\LL	.
.	.	.	.	.	.	.	.	.	.	.	16an\	.	16cc\	.	.	.	.	.	.	.	16a\)	.	16cc\)	.
.	.	.	.	.	.	.	.	.	.	.	16b-\	.	16dd\	.	8B-/J	.	8f\J	.	8B-\J	.	(>16b-\	.	(>16dd\	.
.	.	.	.	.	.	.	.	.	.	.	16cc\JJ	.	16ee-\JJ	.	.	.	.	.	.	.	16cc\JJ)	.	16ee-\JJ)	.
!	!	!	!	!	!	!	!	!	!	!	!	!	!	!	!	!	!LO:LB:g=original	!	!	!	!	!	!	!
=38	=38	=38	=38	=38	=38	=38	=38	=38	=38	=38	=38	=38	=38	=38	=38	=38	=38	=38	=38	=38	=38	=38	=38	=38
8r	.	.	16r	.	16r	.	4A-X\	-di	4f\	-di	4b-\	-di	4dd\	-di	4B-/	.	4f\	.	4A-X\	.	4b-'>\	.	4dd'\	.
*	*	*	*	*	*	*	*	*Xij	*	*Xij	*	*Xij	*	*	*	*	*	*	*	*	*	*	*	*
.	.	.	16dd\LL	.	16dd\LL	.	.	.	.	.	.	.	.	.	.	.	.	.	.	.	.	.	.	.
8A-X\L	.	4: 2:	16dd\	.	16dd\	.	.	.	.	.	.	.	.	.	.	.	.	.	.	.	.	.	.	.
.	.	.	16b-\JJ	.	16dd\JJ	.	.	.	.	.	.	.	.	.	.	.	.	.	.	.	.	.	.	.
!	!	!	!LO:LB:g=original	!	!	!	!	!	!	!	!	!	!	!	!	!	!	!	!	!	!	!	!	!
8A-\	.	.	16b-\LL	.	16dd\LL	.	4r	.	4r	.	4r	.	4r	.	4r	.	4r	.	4r	.	4r	.	4r	.
.	.	.	16cc\	.	16ee-\	.	.	.	.	.	.	.	.	.	.	.	.	.	.	.	.	.	.	.
8A-\J	.	.	16dd\	.	16ff\	.	.	.	.	.	.	.	.	.	.	.	.	.	.	.	.	.	.	.
.	.	.	16b-\JJ	.	16dd\JJ	.	.	.	.	.	.	.	.	.	.	.	.	.	.	.	.	.	.	.
=39	=39	=39	=39	=39	=39	=39	=39	=39	=39	=39	=39	=39	=39	=39	=39	=39	=39	=39	=39	=39	=39	=39	=39	=39
4G\	.	6 x	4g/	.	4ee-\	.	8r	.	8r	.	8r	.	8r	.	8r	.	8r	.	8r	.	16r	.	16r	.
.	.	.	.	.	.	.	.	.	.	.	.	.	.	.	.	.	.	.	.	.	16g'</LL	.	16ee-'>\LL	.
*	*	*	*	*	*	*	*	*ij	*	*ij	*	*	*	*ij	*	*	*	*	*	*	*	*	*	*
.	.	.	.	.	.	.	8G\	Ex-	8B-\	Ex-	8g\	Ex	8ee-\	Ex-	8B-/L	.	8B-/L	.	8G\L	.	16g'</	.	16ee-'>\	.
.	.	.	.	.	.	.	.	.	.	.	.	.	.	.	.	.	.	.	.	.	16g'</JJ	.	16ee-'>\JJ	.
4r	.	.	4r	.	4r	.	4G\	-au-	4B-\	-au-	16g\LL	au-	16ee-\LL	-au-	8B-/	.	8B-/	.	8G\	.	(<16g/LL	.	(>16ee-\LL	.
.	.	.	.	.	.	.	.	.	.	.	16f\	.	16dd\	.	.	.	.	.	.	.	16f/)	.	16dd\)	.
.	.	.	.	.	.	.	.	.	.	.	16g\	.	16ee-\	.	8B-/J	.	8B-/J	.	8G\J	.	(<16g/	.	16ee-\	.
.	.	.	.	.	.	.	.	.	.	.	16a-X\JJ	.	16ff\JJ	.	.	.	.	.	.	.	16a-X/JJ)	.	16ff\JJ	.
!	!	!	!	!	!	!	!	!	!	!	!	!LO:LB:g=original	!	!	!	!	!	!	!	!	!	!	!	!
=40	=40	=40	=40	=40	=40	=40	=40	=40	=40	=40	=40	=40	=40	=40	=40	=40	=40	=40	=40	=40	=40	=40	=40	=40
8r	.	.	16r	.	16r	.	4G\	-di	4B-\	-di	4g\	-di	4ee-\	-di	4B-/	.	4B-/	.	4G\	.	4g'</	.	4ee-'>\	.
*	*	*	*	*	*	*	*	*Xij	*	*Xij	*	*	*	*Xij	*	*	*	*	*	*	*	*	*	*
.	.	.	16g/LL	.	16ee-\LL	.	.	.	.	.	.	.	.	.	.	.	.	.	.	.	.	.	.	.
8G\L	.	6: x	16g/	.	16ee-\	.	.	.	.	.	.	.	.	.	.	.	.	.	.	.	.	.	.	.
.	.	.	16g/JJ	.	16ee-\JJ	.	.	.	.	.	.	.	.	.	.	.	.	.	.	.	.	.	.	.
!	!	!	!LO:TUP:b:problem	!	!	!	!	!	!	!	!	!	!	!	!	!	!	!	!	!	!	!	!	!
8G\	.	.	24g/LL	.	24ee-\LL	.	4r	.	4r	.	4r	.	4r	.	4r	.	4r	.	4r	.	4r	.	4r	.
.	.	.	24f/	.	24dd\	.	.	.	.	.	.	.	.	.	.	.	.	.	.	.	.	.	.	.
.	.	.	24g/JJ	.	24ee-\JJ	.	.	.	.	.	.	.	.	.	.	.	.	.	.	.	.	.	.	.
!	!	!	!LO:TUP:b:problem	!	!	!	!	!	!	!	!	!	!	!	!	!	!	!	!	!	!	!	!	!
8G\J	.	.	24a-/LL	.	24ff\LL	.	.	.	.	.	.	.	.	.	.	.	.	.	.	.	.	.	.	.
.	.	.	24g/	.	24ee-\	.	.	.	.	.	.	.	.	.	.	.	.	.	.	.	.	.	.	.
.	.	.	24f/JJ	.	24dd\JJ	.	.	.	.	.	.	.	.	.	.	.	.	.	.	.	.	.	.	.
!	!	!	!	!	!	!	!	!	!LO:LB:g=original	!	!	!	!	!	!	!	!	!	!	!	!	!	!	!
=41	=41	=41	=41	=41	=41	=41	=41	=41	=41	=41	=41	=41	=41	=41	=41	=41	=41	=41	=41	=41	=41	=41	=41	=41
4G\	.	.	4g/	.	4ee-\	.	8r	.	8r	.	8r	.	8r	.	8r	.	8r	.	8r	.	16r	.	16r	.
.	.	.	.	.	.	.	.	.	.	.	.	.	.	.	.	.	.	.	.	.	16g'</LL	.	16ee-'>\LL	.
*	*	*	*	*	*	*	*	*ij	*	*	*	*	*	*ij	*	*	*	*	*	*	*	*	*	*
.	.	.	.	.	.	.	8G\	Ex-	8B-\	Ex-	8g\	Ex	8ee-\	Ex-	8B-/L	.	8B-/L	.	8G\L	.	16g'</	.	16ee-'>\	.
.	.	.	.	.	.	.	.	.	.	.	.	.	.	.	.	.	.	.	.	.	16g'</JJ	.	16ee-'>\JJ	.
!LO:TX:b:t=Verte	!	!	!	!	!	!	!	!	!	!	!	!	!	!	!	!	!	!	!	!	!	!	!	!
4r	.	.	4r	.	4r	.	4G\	-au-	4B-\	-au-	16g\LL	au-	16ee-\LL	-au-	8B-/	.	8B-/	.	8G\	.	(<16g/LL	.	(>16ee-\LL	.
.	.	.	.	.	.	.	.	.	.	.	16f\	.	16dd\	.	.	.	.	.	.	.	16f/)	.	16dd\)	.
.	.	.	.	.	.	.	.	.	.	.	16g\	.	16ee-\	.	8B-/J	.	8B-/J	.	8G\J	.	(<16g/	.	(>16ee-\	.
.	.	.	.	.	.	.	.	.	.	.	16a-\JJ	.	16ff\JJ	.	.	.	.	.	.	.	16a-/JJ)	.	16ff\JJ)	.
!LO:PB:g=original	!	!	!	!	!	!	!	!	!	!	!	!	!	!	!	!	!	!	!	!	!	!	!	!
=42	=42	=42	=42	=42	=42	=42	=42	=42	=42	=42	=42	=42	=42	=42	=42	=42	=42	=42	=42	=42	=42	=42	=42	=42
!LO:TX:a:t=tutti	!	!	!	!LO:DY:a	!	!LO:DY:a	!	!	!	!	!	!	!	!	!	!LO:DY:a	!	!	!	!LO:DY:a:rj:t=f&colon;	!	!	!	!
4r	.	.	16r	f	16r	f	4E-\	-di	4B-\	-di	4b-\	-di	4gg\	-di	4G/	f	4B-/	.	4E-\	f	4b-\	.	4gg\	.
*	*	*	*	*	*	*	*	*Xij	*	*	*	*	*	*Xij	*	*	*	*	*	*	*	*	*	*
.	.	.	16ee-\LL	.	16ee-\LL	.	.	.	.	.	.	.	.	.	.	.	.	.	.	.	.	.	.	.
.	.	.	16b-\	.	16b-\	.	.	.	.	.	.	.	.	.	.	.	.	.	.	.	.	.	.	.
.	.	.	16ee-\JJ	.	16ee-\JJ	.	.	.	.	.	.	.	.	.	.	.	.	.	.	.	.	.	.	.
!	!	!	!	!	!	!	!	!	!	!	!	!	!LO:LB:g=original	!	!	!	!	!	!	!	!	!LO:DY:a	!	!LO:DY:a
8r	.	.	16gg\LL	.	16gg\LL	.	8r	.	8r	.	8r	.	8r	.	8r	.	8r	.	8r	.	8r	f	8r	f
.	.	.	16ee-\	.	16ee-\	.	.	.	.	.	.	.	.	.	.	.	.	.	.	.	.	.	.	.
*	*	*	*	*	*	*	*	*ij	*	*ij	*	*ij	*	*	*	*	*	*	*	*	*	*	*	*
8E-\	.	.	16bb-\	.	16bb-\	.	8E-\	ex-	8B-\	ex-	8g\	ex-	8ee-\	ex-	8G/	.	8e-\	.	8E-\	.	8ee-\	.	8gg\	.
.	.	.	16gg\JJ	.	16gg\JJ	.	.	.	.	.	.	.	.	.	.	.	.	.	.	.	.	.	.	.
!	!	!	!	!	!	!	!	!	!	!	!	!	!	!	!	!	!	!	!LO:LB:g=original	!	!	!	!	!
=43	=43	=43	=43	=43	=43	=43	=43	=43	=43	=43	=43	=43	=43	=43	=43	=43	=43	=43	=43	=43	=43	=43	=43	=43
!	!	!	!LO:TUP:a:problem:klamra łukowa	!	!LO:TUP:a:problem:klamra łukowa	!	!	!	!	!	!	!	!	!	!	!	!	!	!	!	!	!	!	!
8B-\L	.	.	24ff\LL	.	24ff\LL	.	8B-\	-au-	8B-\	-au-	8f\	-au-	8dd\	-au-	8B-\L	.	8f\L	.	8BB-\L	.	8dd\L	.	8ff\L	.
.	.	.	24ee-\	.	24ee-\	.	.	.	.	.	.	.	.	.	.	.	.	.	.	.	.	.	.	.
.	.	.	24ff\J	.	24ff\J	.	.	.	.	.	.	.	.	.	.	.	.	.	.	.	.	.	.	.
8E-\J	.	.	8ee-\J	.	8ee-\J	.	8E-\	-di	8B-\	-di	8g\	-di	8ee-\	-di	8e-\J	.	8g\J	.	8E-\J	.	8ee-\J	.	8gg\J	.
*	*	*	*	*	*	*	*	*Xij	*	*Xij	*	*Xij	*	*	*	*	*	*	*	*	*	*	*	*
!	!	!	!	!	!	!	!LO:LB:g=original	!	!	!	!	!	!	!	!	!	!	!	!	!	!	!	!	!
8r	.	.	16gg\LL	.	16gg\LL	.	8r	.	8r	.	8r	.	8r	.	8r	.	8r	.	8r	.	8r	.	8r	.
.	.	.	16ee-\	.	16ee-\	.	.	.	.	.	.	.	.	.	.	.	.	.	.	.	.	.	.	.
*	*	*	*	*	*	*	*	*	*	*ij	*	*ij	*	*ij	*	*	*	*	*	*	*	*	*	*
8E-\	.	.	16bb-\	.	16bb-\	.	8E-\	Ex-	8B-\	ex-	8g\	ex-	8ee-\	ex-	8e-\	.	8g\	.	8E-\	.	8ee-\	.	8gg\	.
.	.	.	16gg\JJ	.	16gg\JJ	.	.	.	.	.	.	.	.	.	.	.	.	.	.	.	.	.	.	.
!	!	!	!LO:LB:g=original	!	!	!	!	!	!	!	!	!	!	!	!LO:LB:g=original	!	!	!	!	!	!LO:LB:g=original	!	!LO:LB:g=original	!
=44	=44	=44	=44	=44	=44	=44	=44	=44	=44	=44	=44	=44	=44	=44	=44	=44	=44	=44	=44	=44	=44	=44	=44	=44
!	!	!	!LO:TUP:a:problem:klamra łukowa	!	!LO:TUP:a:problem:klamra łukowa	!	!	!	!	!	!	!	!	!	!	!	!	!	!	!	!	!	!	!
8B-\L	.	.	24ff\LL	.	24ff\LL	.	8B-\	-au-	8B-\	-au-	8f\	-au-	8dd\	-au-	8B-\L	.	8f\L	.	8BB-\L	.	8dd\L	.	8ff\L	.
.	.	.	24ee-\	.	24ee-\	.	.	.	.	.	.	.	.	.	.	.	.	.	.	.	.	.	.	.
.	.	.	24ff\J	.	24ff\J	.	.	.	.	.	.	.	.	.	.	.	.	.	.	.	.	.	.	.
8E-\J	.	.	8ee-\J	.	8ee-\J	.	8E-\	-di	8B-\	-di	8g\	-di	8ee-\	-di	8e-\J	.	8g\J	.	8E-\J	.	8ee-\J	.	8gg\J	.
*	*	*	*	*	*	*	*	*	*	*Xij	*	*Xij	*	*Xij	*	*	*	*	*	*	*	*	*	*
8r	.	.	16gg\LL	.	16gg\LL	.	8r	.	8r	.	8r	.	8r	.	8r	.	8r	.	8r	.	8r	.	8r	.
.	.	.	16ee-\	.	16ee-\	.	.	.	.	.	.	.	.	.	.	.	.	.	.	.	.	.	.	.
*	*	*	*	*	*	*	*	*ij	*	*ij	*	*ij	*	*ij	*	*	*	*	*	*	*	*	*	*
8E-\	.	.	16gg\	.	16bb-\	.	8E-\	Ex-	8B-\	ex-	8g\	ex-	8ee-\	ex-	8e-\	.	8g\	.	8E-\	.	8ee-\	.	8gg\	.
.	.	.	16ee-\JJ	.	16gg\JJ	.	.	.	.	.	.	.	.	.	.	.	.	.	.	.	.	.	.	.
=45	=45	=45	=45	=45	=45	=45	=45	=45	=45	=45	=45	=45	=45	=45	=45	=45	=45	=45	=45	=45	=45	=45	=45	=45
!!mixed beam:problem
!LO:TX:a:t=P:problem:mixed beam	!	!	!	!	!	!	!	!	!	!	!	!	!	!	!	!	!	!	!LO:TX:a:t=P:problem:mixed beam	!	!	!	!	!
8A-\L	.	6 x	8cc\L	.	16gg\LL	.	8A-\	-au-	8c\	-au-	8a-\	-au-	8ff\	-au-	4f\	.	4a-\	.	8A-\L	.	4ff\	.	4aa-\	.
.	.	.	.	.	16ff\	.	.	.	.	.	.	.	.	.	.	.	.	.	.	.	.	.	.	.
8A-\	.	.	16cc\L	.	16aa-\	.	16A-\	-di	16c\	-di	16a-\	-di	16ff\	-di	.	.	.	.	8A-\	.	.	.	.	.
*	*	*	*	*	*	*	*	*Xij	*	*Xij	*	*Xij	*	*Xij	*	*	*	*	*	*	*	*	*	*
.	.	.	16a-\JJ	.	16ff\JJ	.	16A-\	nos	16c\	nos	16a-\	nos	16ff\	nos	.	.	.	.	.	.	.	.	.	.
!	!	!	!	!	!	!	!	!	!	!	!	!LO:LB:g=original	!	!	!	!	!	!	!	!	!	!	!	!
8B-\	.	4 x	8g/L	.	8ee-\L	.	8B-\	Do-	8B-\	Do-	8g\	Do-	8ee-\	Do-	8e-\L	.	8g\L	.	8B-\	.	8ee-\L	.	8gg\L	.
8BB-\J	.	7 x	8f/J	.	8dd\J	.	8BB-/	-mi-	8B-\	-mi-	8f\	-mi-	8dd\	-mi-	8B-\J	.	8f\J	.	8BB-/J	.	8dd\J	.	8ff\J	.
!	!	!	!	!	!LO:LB:g=original	!	!	!	!	!	!	!	!	!	!	!	!	!	!	!	!	!	!	!
=46	=46	=46	=46	=46	=46	=46	=46	=46	=46	=46	=46	=46	=46	=46	=46	=46	=46	=46	=46	=46	=46	=46	=46	=46
!LO:TX:a:t=Solo	!	!	!	!	!	!	!	!	!	!	!	!	!	!	!	!	!	!	!	!	!	!	!	!
4E-\	.	.	4g/	.	16ee-\LL	.	4E-\	-ne	4B-\	-ne	4g\	-ne	4ee-\	-ne	4G/	.	4e-\	.	4E-\	.	4ee-\	.	4gg\	.
.	.	.	.	.	16gg\	.	.	.	.	.	.	.	.	.	.	.	.	.	.	.	.	.	.	.
.	.	.	.	.	16ff\	.	.	.	.	.	.	.	.	.	.	.	.	.	.	.	.	.	.	.
.	.	.	.	.	16ee-\JJ	.	.	.	.	.	.	.	.	.	.	.	.	.	.	.	.	.	.	.
8r	.	.	8r	.	16dd\LL	.	4r	.	4r	.	4r	.	4r	.	4r	.	4r	.	4r	.	4r	.	4r	.
.	.	.	.	.	16ee-\	.	.	.	.	.	.	.	.	.	.	.	.	.	.	.	.	.	.	.
8G\	.	6 -5r	8e-/	.	16b-\	.	.	.	.	.	.	.	.	.	.	.	.	.	.	.	.	.	.	.
.	.	.	.	.	16dd-X\JJ	.	.	.	.	.	.	.	.	.	.	.	.	.	.	.	.	.	.	.
!	!	!	!	!	!	!	!	!	!	!	!	!	!	!	!	!	!LO:LB:g=original	!	!	!	!	!	!	!
=47	=47	=47	=47	=47	=47	=47	=47	=47	=47	=47	=47	=47	=47	=47	=47	=47	=47	=47	=47	=47	=47	=47	=47	=47
!!mixed beam:problem
!LO:TX:a:t=P:problem:mixed beam	!	!	!	!	!LO:TUP:a:problem:klamra łukowa	!	!	!	!	!	!	!	!	!	!	!	!	!	!	!	!	!	!	!
8A-\L	.	6 x	8f/L	.	24cc\LL	.	2r	.	2r	.	2r	.	2r	.	8r	.	8r	.	8r	.	8r	.	8r	.
.	.	.	.	.	24b-\	.	.	.	.	.	.	.	.	.	.	.	.	.	.	.	.	.	.	.
.	.	.	.	.	24cc\JJ	.	.	.	.	.	.	.	.	.	.	.	.	.	.	.	.	.	.	.
!!mixed beam:problem
!	!	!	!	!	!LO:TUP:a:problem:klamra łukowa	!	!	!	!	!	!	!	!	!	!	!	!	!	!LO:TX:a:t=P:problem:mixed beam	!	!	!	!	!
8A-\	.	.	8a-/	.	24aa-\LL	.	.	.	.	.	.	.	.	.	8f\L	.	8a-\L	.	8A-\L	.	8ff\L	.	8aa-\L	.
.	.	.	.	.	24gg\	.	.	.	.	.	.	.	.	.	.	.	.	.	.	.	.	.	.	.
.	.	.	.	.	24ff\JJ	.	.	.	.	.	.	.	.	.	.	.	.	.	.	.	.	.	.	.
8B-\	.	4 x	8g/	.	8ee-\L	.	.	.	.	.	.	.	.	.	8e-\	.	8g\	.	8B-\	.	8ee-\	.	8gg\	.
!	!	!	!	!	!	!	!	!	!	!	!	!	!	!	!	!	!	!	!	!	!LO:TX:a:t=Soli	!	!LO:TX:a:t=Soli	!
8BB-/J	.	7 2	8f/J	.	8ddn\J	.	.	.	.	.	.	.	.	.	8B-\J	.	8f\J	.	8BB-/J	.	8dd\J	.	8ff\J	.
!	!	!	!	!	!	!	!	!	!LO:LB:g=original	!	!	!	!LO:LB:g=original	!	!	!	!	!	!	!	!	!	!	!
=48	=48	=48	=48	=48	=48	=48	=48	=48	=48	=48	=48	=48	=48	=48	=48	=48	=48	=48	=48	=48	=48	=48	=48	=48
!	!	!	!	!	!	!	!	!	!	!	!	!	!	!	!LO:TX:a:t=Soli	!	!LO:TX:a:t=Soli	!	!LO:TX:a:t=Soli	!	!	!	!	!
4E-\	.	.	4g/	.	4ee-\	.	4E-\	A-	4B-\	A-	[>4g\	A-	[>4ee-\	A-	4G/	.	4e-\	.	8E-\L	.	4ee-\	.	4gg'>\	.
.	.	.	.	.	.	.	.	.	.	.	.	.	.	.	.	.	.	.	8E-\	.	.	.	.	.
4r	.	.	4r	.	4r	.	4E-\	-gnus	4B-\	-gnus	16g\LL]	.	16ee-\LL]	.	4G/	.	4e-\	.	8E-\	.	(>16ee-\LL	.	(>16gg\LL	.
.	.	.	.	.	.	.	.	.	.	.	16a-\JJ	.	16ff\JJ	.	.	.	.	.	.	.	16ff\	.	16aa-\)	.
.	.	.	.	.	.	.	.	.	.	.	16b-\LL	-gnus	16gg\LL	-gnus	.	.	.	.	8E-\J	.	16gg\	.	(>16bb-\	.
.	.	.	.	.	.	.	.	.	.	.	16g\JJ	.	16ee-\JJ	.	.	.	.	.	.	.	16ee-\JJ)	.	16gg\JJ)	.
!LO:LB:g=original	!	!	!	!	!	!	!	!	!	!	!	!	!	!	!	!	!	!	!	!	!	!	!	!
=49	=49	=49	=49	=49	=49	=49	=49	=49	=49	=49	=49	=49	=49	=49	=49	=49	=49	=49	=49	=49	=49	=49	=49	=49
!!mixed beam:problem
!	!	!	!	!	!	!	!	!	!	!	!	!	!	!	!	!	!	!	!LO:TX:a:t=P:problem:mixed beam	!	!	!	!	!
8r	.	.	8r	.	16r	.	8B-\	De-	8B-\	De-	16g\LL	De-	16ee-\LL	De-	8B-/L	.	8f\L	.	8B-\L	.	(>16ee-\LL	.	16gg\LL	.
.	.	.	.	.	16d/LL	.	.	.	.	.	16f\JJ	.	16dd\JJ	.	.	.	.	.	.	.	16dd\J)	.	16ff\J	.
8BB-/L	.	.	8d/	.	16f/	.	8BB-/	-i	8B-\	-i	8f\	-i	8dd\	-i	8B-/J	.	8f\J	.	8BB-/J	.	8dd'>\J	.	8ff\J	.
.	.	.	.	.	16b-/JJ	.	.	.	.	.	.	.	.	.	.	.	.	.	.	.	.	.	.	.
8BB-/	.	.	16f/LL	.	16dd\LL	.	4r	.	4r	.	4r	.	4r	.	4r	.	4r	.	4r	.	4r	.	4r	.
.	.	.	16d/	.	16b-\	.	.	.	.	.	.	.	.	.	.	.	.	.	.	.	.	.	.	.
8BB-/J	.	.	16b-/	.	16ff\	.	.	.	.	.	.	.	.	.	.	.	.	.	.	.	.	.	.	.
.	.	.	16f/JJ	.	16dd\JJ	.	.	.	.	.	.	.	.	.	.	.	.	.	.	.	.	.	.	.
!	!	!	!	!	!	!	!LO:LB:g=original	!	!	!	!	!	!	!	!	!	!	!	!	!	!	!	!	!
=50	=50	=50	=50	=50	=50	=50	=50	=50	=50	=50	=50	=50	=50	=50	=50	=50	=50	=50	=50	=50	=50	=50	=50	=50
*	*	*	*	*	*	*	*	*	*	*ij	*	*	*	*ij	*	*	*	*	*tremolo	*	*	*	*	*
4BB-/	.	.	4dd\	.	4bb-\	.	4B-\	A-	4B-\	A-	[>4f\	A-	[>4dd\	A-	4B-/	.	4f\	.	8BB-/L	.	4dd\	.	4ff\	.
.	.	.	.	.	.	.	.	.	.	.	.	.	.	.	.	.	.	.	8BB-/	.	.	.	.	.
4r	.	.	4r	.	4r	.	4B-\	-gnus	4B-\	-gnus	16f\LL]	.	16dd\LL]	.	4B-/	.	4f\	.	8BB-/	.	(>16dd\LL	.	(>16ff\LL	.
.	.	.	.	.	.	.	.	.	.	.	16g\JJ	.	16ee-\JJ	.	.	.	.	.	.	.	16ee-\	.	16gg\)	.
.	.	.	.	.	.	.	.	.	.	.	16a-\LL	-gnus	16ff\LL	-gnus	.	.	.	.	8BB-/J	.	16ff\	.	(>16aa-\	.
.	.	.	.	.	.	.	.	.	.	.	16f\JJ	.	16dd\JJ	.	.	.	.	.	.	.	16dd\JJ)	.	16ff\JJ)	.
*	*	*	*	*	*	*	*	*	*	*	*	*	*	*	*	*	*	*	*Xtremolo	*	*	*	*	*
!	!	!	!LO:LB:g=original	!	!LO:PB:g=original	!	!	!	!	!	!	!LO:LB:g=original	!	!	!	!	!	!	!LO:LB:g=original	!	!LO:LB:g=original	!	!LO:LB:g=original	!
=51	=51	=51	=51	=51	=51	=51	=51	=51	=51	=51	=51	=51	=51	=51	=51	=51	=51	=51	=51	=51	=51	=51	=51	=51
8r	.	.	16r	.	16r	.	8e-\	De-	8B-\	De-	16f\LL	De-	16dd\LL	De-	8G/L	.	8e-\L	.	8E-\L	.	16dd\LL	.	16ff\LL	.
.	.	.	16e-/LL	.	16e-/LL	.	.	.	.	.	16g\JJ	.	16ee-\JJ	.	.	.	.	.	.	.	16ee-\J	.	16gg\J	.
8E-\L	.	.	16B-/	.	16g/	.	8E-\	-i	8B-\	-i	8g\	-i	8ee-\	-i	8G/J	.	8e-\J	.	8E-\J	.	8ee-\J	.	8gg\J	.
*	*	*	*	*	*	*	*	*	*	*Xij	*	*	*	*Xij	*	*	*	*	*	*	*	*	*	*
.	.	.	16e-/JJ	.	16b-/JJ	.	.	.	.	.	.	.	.	.	.	.	.	.	.	.	.	.	.	.
8E-\	.	.	16g/LL	.	16ee-\LL	.	4r	.	4r	.	4r	.	4r	.	4r	.	4r	.	4r	.	4r	.	4r	.
.	.	.	16e-/	.	16b-\	.	.	.	.	.	.	.	.	.	.	.	.	.	.	.	.	.	.	.
8E-\J	.	.	16b-/	.	16gg\	.	.	.	.	.	.	.	.	.	.	.	.	.	.	.	.	.	.	.
.	.	.	16g/JJ	.	16ee-\JJ	.	.	.	.	.	.	.	.	.	.	.	.	.	.	.	.	.	.	.
!	!	!	!	!	!	!	!	!	!	!	!	!	!	!	!LO:LB:g=original	!	!	!	!	!	!	!	!	!
=52	=52	=52	=52	=52	=52	=52	=52	=52	=52	=52	=52	=52	=52	=52	=52	=52	=52	=52	=52	=52	=52	=52	=52	=52
*	*	*	*	*	*	*	*	*ij	*	*ij	*	*	*	*	*	*	*	*	*	*	*	*	*	*
4E-\	.	.	4gg\	.	4bb-\	.	4E-\	A-	4B-\	A-	[>4g\	A-	[>4ee-\	A-	4G/	.	4e-\	.	8E-\L	.	4ee-\	.	4gg\	.
.	.	.	.	.	.	.	.	.	.	.	.	.	.	.	.	.	.	.	8E-\	.	.	.	.	.
4r	.	.	4r	.	4r	.	4E-\	-gnus	4B-\	-gnus	16g\LL]	.	16ee-\LL]	.	4G/	.	4e-\	.	8E-\	.	(>16ee-\LL	.	(>16gg\LL	.
.	.	.	.	.	.	.	.	.	.	.	16a-\JJ	.	16ff\JJ	.	.	.	.	.	.	.	16ff\)	.	16aa-\)	.
.	.	.	.	.	.	.	.	.	.	.	16b-\LL	-gnus	16gg\LL	-gnus	.	.	.	.	8E-\J	.	(>16gg\	.	(>16bb-\	.
.	.	.	.	.	.	.	.	.	.	.	16g\JJ	.	16ee-\JJ	.	.	.	.	.	.	.	16ee-\JJ)	.	16gg\JJ)	.
!	!	!	!	!	!	!	!	!	!	!	!	!	!LO:LB:g=original	!	!	!	!	!	!	!	!	!	!	!
=53	=53	=53	=53	=53	=53	=53	=53	=53	=53	=53	=53	=53	=53	=53	=53	=53	=53	=53	=53	=53	=53	=53	=53	=53
*	*	*	*	*	*	*	*	*	*	*	*	*	*	*	*	*	*	*	*tremolo	*	*	*	*	*
1r	.	.	1r	.	1r	.	4B-\	De-	4B-\	De-	16g\LL	De-	16ee-\LL	De-	4B-/	.	4f\	.	8BB-/L	.	16ee-\LL	.	16gg\LL	.
.	.	.	.	.	.	.	.	.	.	.	16f\JJ	.	16dd\JJ	.	.	.	.	.	.	.	16dd\JJ	.	16ff\JJ	.
.	.	.	.	.	.	.	.	.	.	.	4f\	-i	4dd\	-i	.	.	.	.	8BB-/	.	4dd\	.	4ff\	.
.	.	.	.	.	.	.	8B-\	-i	8B-\	-i	.	.	.	.	4B-/	.	4f\	.	8BB-/	.	.	.	.	.
*	*	*	*	*	*	*	*	*Xij	*	*Xij	*	*	*	*	*	*	*	*	*	*	*	*	*	*
.	.	.	.	.	.	.	8B-\	qui	8B-\	qui	16g\LL	qui	16ee-\LL	qui	.	.	.	.	8BB-/J	.	16ee-\LL	.	16gg\LL	.
.	.	.	.	.	.	.	.	.	.	.	16a-\JJ	.	16ff\JJ	.	.	.	.	.	.	.	16ff\JJ	.	16aa-\JJ	.
*	*	*	*	*	*	*	*	*	*	*	*	*	*	*	*	*	*	*	*Xtremolo	*	*	*	*	*
=54-	=54	=54	=54-	=54	=54-	=54	=54	=54	=54	=54	=54	=54	=54	=54	=54	=54	=54	=54	=54	=54	=54	=54	=54	=54
!!mixed beam:problem
!	!	!	!	!	!	!	!	!	!	!	!	!	!	!	!	!	!	!	!LO:TX:a:t=P:problem:mixed beam	!	!	!	!	!
.	.	.	.	.	.	.	8E-\	tol-	8B-\	tol-	8b-\	tol-	8gg\	tol-	8e-\L	.	8g\L	.	8E-\L	.	8gg\L	.	8bb-\L	.
.	.	.	.	.	.	.	16A-\	-lis	16c\	-lis	16cc\	-lis	16aa-\	-lis	8f\	.	8a-\	.	8A-\	.	16aa-\L	.	16ccc\L	.
.	.	.	.	.	.	.	16A-\	pec-	16c\	pec-	16a-\	pec-	16ff\	pec-	.	.	.	.	.	.	16ff\JJ	.	16aa-\JJ	.
.	.	.	.	.	.	.	8B-\	-ca-	8B-\	-ca-	8g\	-ca-	8ee-\	-ca-	8e-\	.	8g\	.	8B-\	.	8ee-\L	.	8gg\L	.
.	.	.	.	.	.	.	8BB-/	-ta	8B-\	-ta	8f\	-ta	8dd\	-ta	8B-\J	.	8f\J	.	8BB-/J	.	8dd\J	.	8ff\J	.
!	!	!	!	!	!	!	!	!	!LO:LB:g=original	!	!	!	!	!	!	!	!	!	!	!	!	!	!	!
=55-	=55	=55	=55	=55	=55	=55	=55	=55	=55	=55	=55	=55	=55	=55	=55	=55	=55	=55	=55	=55	=55	=55	=55	=55
!	!	!	!	!LO:DY:a	!	!LO:DY:a	!	!	!	!	!	!	!	!	!	!	!	!	!	!	!	!	!	!
2r	.	.	16r	f	16r	f	8E-\	mun-	8B-\	mun-	8g\	mun-	8ee-\	mun-	8G/L	.	8e-\L	.	8E-\L	.	8ee-\L	.	8gg\L	.
.	.	.	16e-/LL	.	16e-/LL	.	.	.	.	.	.	.	.	.	.	.	.	.	.	.	.	.	.	.
.	.	.	16g/	.	16g/	.	8E-\	-di	8B-\	-di	8g\	-di	8ee-\	-di	8G/J	.	8e-\J	.	8E-\J	.	8ee-\J	.	8gg\J	.
.	.	.	16b-/JJ	.	16b-/JJ	.	.	.	.	.	.	.	.	.	.	.	.	.	.	.	.	.	.	.
!	!	!	!	!	!	!	!	!	!	!	!	!	!	!	!	!	!	!	!	!	!	!	!	!LO:DY:a
.	.	.	16ee-\LL	.	16ee-\LL	.	4r	.	4r	.	4r	.	4r	.	4r	.	4r	.	4r	.	4r	.	4r	f
.	.	.	16gg\	.	16gg\	.	.	.	.	.	.	.	.	.	.	.	.	.	.	.	.	.	.	.
.	.	.	16bb-\	.	16bb-\	.	.	.	.	.	.	.	.	.	.	.	.	.	.	.	.	.	.	.
.	.	.	16gg\JJ	.	16gg\JJ	.	.	.	.	.	.	.	.	.	.	.	.	.	.	.	.	.	.	.
!	!	!	!	!	!	!	!LO:LB:g=original	!	!	!	!	!LO:LB:g=original	!	!	!	!	!	!	!	!	!	!	!	!
=56	=56	=56	=56	=56	=56	=56	=56	=56	=56	=56	=56	=56	=56	=56	=56	=56	=56	=56	=56	=56	=56	=56	=56	=56
!LO:TX:a:t=tutti:rj	!	!	!	!	!	!	!	!	!	!	!	!	!	!	!	!LO:DY:a:t=for	!	!LO:DY:a:rj:t=for	!	!LO:DY:a:rj:t=f&colon;	!	!	!	!
8E-\L	.	.	(>16ff\LL	.	(>16ff\LL	.	4E-\	mi-	4B-\	mi-	4g\	mi-	4ee-\	mi-	2e-\	f	2g\	f	8E-\L	f	2b-\	.	2gg\	.
.	.	.	16ee-\)	.	16ee-\)	.	.	.	.	.	.	.	.	.	.	.	.	.	.	.	.	.	.	.
8E-\	.	.	16ee-'>\	.	16ee-'>\	.	.	.	.	.	.	.	.	.	.	.	.	.	8E-\	.	.	.	.	.
.	.	.	16ee-'>\JJ	.	16ee-'>\JJ	.	.	.	.	.	.	.	.	.	.	.	.	.	.	.	.	.	.	.
8E-\	.	.	(>16ee-\LL	.	(>16ee-\LL	.	4E-\	-ſe-	4B-\	-ſe-	4g\	-ſe-	4ee-\	-ſe-	.	.	.	.	8E-\	.	.	.	.	.
.	.	.	16ff\)	.	16ff\)	.	.	.	.	.	.	.	.	.	.	.	.	.	.	.	.	.	.	.
8E-\J	.	.	(>16gg\	.	(>16gg\	.	.	.	.	.	.	.	.	.	.	.	.	.	8E-\J	.	.	.	.	.
.	.	.	16aa-\JJ)	.	16aa-\JJ)	.	.	.	.	.	.	.	.	.	.	.	.	.	.	.	.	.	.	.
!	!	!	!	!	!	!	!	!	!	!	!	!	!	!	!	!	!LO:LB:g=original	!	!	!	!	!	!	!
=57	=57	=57	=57	=57	=57	=57	=57	=57	=57	=57	=57	=57	=57	=57	=57	=57	=57	=57	=57	=57	=57	=57	=57	=57
*tremolo	*	*	*	*	*	*	*	*	*	*	*	*	*	*	*	*	*	*	*tremolo	*	*	*	*	*
8A-\L	.	6: x	(>16gg\LL	.	(>16gg\LL	.	4A-\	-re-	4c\	-re-	4a-\	-re-	4ff\	-re-	2f\	.	2a-\	.	8A-\L	.	2cc\	.	2ff\	.
.	.	.	16ff\)	.	16ff\)	.	.	.	.	.	.	.	.	.	.	.	.	.	.	.	.	.	.	.
8A-\	.	.	16ff'>\	.	16ff'>\	.	.	.	.	.	.	.	.	.	.	.	.	.	8A-\	.	.	.	.	.
.	.	.	16ff'>\JJ	.	16ff'>\JJ	.	.	.	.	.	.	.	.	.	.	.	.	.	.	.	.	.	.	.
!	!	!	!	!	!LO:LB:g=original	!	!	!	!	!	!	!	!	!	!	!	!	!	!	!	!	!	!	!
8A-\	.	.	(>16bb-\LL	.	(>16bb-\LL	.	4A-\	-re	4c\	-re	4a-\	-re	4ff\	-re	.	.	.	.	8A-\	.	.	.	.	.
.	.	.	16aa-\)	.	16aa-\)	.	.	.	.	.	.	.	.	.	.	.	.	.	.	.	.	.	.	.
8A-\J	.	.	(>16gg\	.	(>16gg\	.	.	.	.	.	.	.	.	.	.	.	.	.	8A-\J	.	.	.	.	.
.	.	.	16ff\JJ)	.	16ff\JJ)	.	.	.	.	.	.	.	.	.	.	.	.	.	.	.	.	.	.	.
!	!	!	!LO:LB:g=original	!	!	!	!	!	!	!	!	!	!	!	!	!	!	!	!	!	!	!	!	!
=58	=58	=58	=58	=58	=58	=58	=58	=58	=58	=58	=58	=58	=58	=58	=58	=58	=58	=58	=58	=58	=58	=58	=58	=58
*	*	*	*	*	*	*	*	*ij	*	*ij	*	*ij	*	*	*	*	*	*	*	*	*	*	*	*
8B-\L	.	.	(>16ee-\LL	.	(>16ee-\LL	.	4B-\	mi-	4B-\	mi-	4f\	mi-	4dd\	mi-	2B-/	.	2f\	.	8B-\L	.	2dd\	.	2ff\	.
.	.	.	16dd\)	.	16dd\)	.	.	.	.	.	.	.	.	.	.	.	.	.	.	.	.	.	.	.
8B-\	.	.	16dd'>\	.	16dd'>\	.	.	.	.	.	.	.	.	.	.	.	.	.	8B-\	.	.	.	.	.
.	.	.	16dd'>\JJ	.	16dd'>\JJ	.	.	.	.	.	.	.	.	.	.	.	.	.	.	.	.	.	.	.
8B-\	.	.	(>16dd\LL	.	(>16dd\LL	.	4B-\	-ſe-	4B-\	-ſe-	4f\	-ſe-	4dd\	-ſe-	.	.	.	.	8B-\	.	.	.	.	.
.	.	.	16ee-\)	.	16ee-\)	.	.	.	.	.	.	.	.	.	.	.	.	.	.	.	.	.	.	.
8B-\J	.	.	(>16ff\	.	(>16ff\	.	.	.	.	.	.	.	.	.	.	.	.	.	8B-\J	.	.	.	.	.
.	.	.	16gg\JJ)	.	16gg\JJ)	.	.	.	.	.	.	.	.	.	.	.	.	.	.	.	.	.	.	.
!	!	!	!	!	!	!	!	!	!	!	!	!	!LO:LB:g=original	!	!	!	!	!	!	!	!	!	!LO:LB:g=original	!
=59	=59	=59	=59	=59	=59	=59	=59	=59	=59	=59	=59	=59	=59	=59	=59	=59	=59	=59	=59	=59	=59	=59	=59	=59
8E-\L	.	.	(>16ff\LL	.	(>16ff\LL	.	4E-\	-re-	4B-\	-re-	4g\	-re-	4ee-\	-re-	2e-\	.	2g\	.	8E-\L	.	2ee-\	.	2gg\	.
.	.	.	16ee-\)	.	16ee-\)	.	.	.	.	.	.	.	.	.	.	.	.	.	.	.	.	.	.	.
8E-\	.	.	16ee-'>\	.	16ee-'>\	.	.	.	.	.	.	.	.	.	.	.	.	.	8E-\	.	.	.	.	.
.	.	.	16ee-'>\JJ	.	16ee-'>\JJ	.	.	.	.	.	.	.	.	.	.	.	.	.	.	.	.	.	.	.
8E-\	.	.	(>16aa-\LL	.	(>16aa-\LL	.	4E-\	-re	4B-\	-re	4g\	-re	4ee-\	-re-	.	.	.	.	8E-\	.	.	.	.	.
*	*	*	*	*	*	*	*	*Xij	*	*Xij	*	*Xij	*	*	*	*	*	*	*	*	*	*	*	*
.	.	.	16gg\)	.	16gg\)	.	.	.	.	.	.	.	.	.	.	.	.	.	.	.	.	.	.	.
8E-\J	.	.	(>16ff\	.	(>16ff\	.	.	.	.	.	.	.	.	.	.	.	.	.	8E-\J	.	.	.	.	.
.	.	.	16ee-\JJ)	.	16ee-\JJ)	.	.	.	.	.	.	.	.	.	.	.	.	.	.	.	.	.	.	.
*Xtremolo	*	*	*	*	*	*	*	*	*	*	*	*	*	*	*	*	*	*	*Xtremolo	*	*	*	*	*
!LO:LB:g=original	!	!	!	!	!	!	!	!	!	!	!	!	!	!	!	!	!	!	!LO:LB:g=original	!	!LO:LB:g=original	!	!	!
=60	=60	=60	=60	=60	=60	=60	=60	=60	=60	=60	=60	=60	=60	=60	=60	=60	=60	=60	=60	=60	=60	=60	=60	=60
*	*	*	*	*	*	*	*	*ij	*	*ij	*	*ij	*	*ij	*	*	*	*	*	*	*	*	*	*
8A-\L	.	6: x	8cc\L	.	(>16een\LL	.	4A-\	mi-	4c\	mi-	4cc\	mi-	4ff\	mi-	2f\	.	2a-\	.	8A-\L	.	2ff\	.	2aa-\	.
.	.	.	.	.	16ff\)	.	.	.	.	.	.	.	.	.	.	.	.	.	.	.	.	.	.	.
8A-\	.	.	8cc\	.	16ff'>\	.	.	.	.	.	.	.	.	.	.	.	.	.	8A-\	.	.	.	.	.
.	.	.	.	.	16ff'>\JJ	.	.	.	.	.	.	.	.	.	.	.	.	.	.	.	.	.	.	.
8A-\	.	.	8cc\	.	(>8.aa-\L	.	4A-\	-ſe-	4c\	-ſe-	4cc\	-ſe-	4ff\	-ſe-	.	.	.	.	8A-\	.	.	.	.	.
8A-\J	.	.	8cc\J	.	.	.	.	.	.	.	.	.	.	.	.	.	.	.	8A-\J	.	.	.	.	.
.	.	.	.	.	16ff\Jk)	.	.	.	.	.	.	.	.	.	.	.	.	.	.	.	.	.	.	.
=61	=61	=61	=61	=61	=61	=61	=61	=61	=61	=61	=61	=61	=61	=61	=61	=61	=61	=61	=61	=61	=61	=61	=61	=61
*	*	*	*2\right	*	*	*	*	*	*	*	*	*	*	*	*	*	*	*	*	*	*	*	*	*
*tremolo	*	*	*tremolo	*	*	*	*	*	*	*	*	*	*	*	*	*	*	*	*tremolo	*	*	*	*	*
8G\L	.	6 x	8b-\L	.	(>16ff\LL	.	4G\	-re-	4e-\	-re-	4b-\	-re-	4ee-\	-re-	2e-\	.	2g\	.	8G\L	.	2ee-\	.	2gg\	.
.	.	.	.	.	16ee-X\)	.	.	.	.	.	.	.	.	.	.	.	.	.	.	.	.	.	.	.
8G\	.	.	8b-\	.	16ee-'>\	.	.	.	.	.	.	.	.	.	.	.	.	.	8G\	.	.	.	.	.
.	.	.	.	.	16ee-'>\JJ	.	.	.	.	.	.	.	.	.	.	.	.	.	.	.	.	.	.	.
8G\	.	.	8b-\	.	(>8.gg\L	.	4G\	-re	4e-\	-re	4b-\	-re	4ee-\	-re	.	.	.	.	8G\	.	.	.	.	.
*	*	*	*	*	*	*	*	*Xij	*	*Xij	*	*Xij	*	*Xij	*	*	*	*	*	*	*	*	*	*
8G\J	.	.	8b-\J	.	.	.	.	.	.	.	.	.	.	.	.	.	.	.	8G\J	.	.	.	.	.
.	.	.	.	.	16ee-\Jk)	.	.	.	.	.	.	.	.	.	.	.	.	.	.	.	.	.	.	.
*Xtremolo	*	*	*Xtremolo	*	*	*	*	*	*	*	*	*	*	*	*	*	*	*	*Xtremolo	*	*	*	*	*
!	!	!	!	!	!LO:LB:g=original	!	!	!	!	!	!	!	!	!	!	!	!	!	!	!	!	!	!	!
=62	=62	=62	=62	=62	=62	=62	=62	=62	=62	=62	=62	=62	=62	=62	=62	=62	=62	=62	=62	=62	=62	=62	=62	=62
!!mixed beam:problem
!LO:TX:a:t=P:problem:mixed beam	!	!	!	!	!LO:TUP:a:problem:klamra łukowa	!	!	!	!	!	!	!	!	!	!	!	!LO:TX:t=P:problem:4\right	!	!LO:TX:a:t=P:problem:mixed beam	!	!	!	!	!
8A-\L	.	6 x	8cc\L	.	24ff\LL	.	4A-\	no-	4c\	no-	4a-\	no-	4ff\	no-	4f\	.	4a-\	.	8A-\L	.	4ff\	.	4aa-\	.
.	.	.	.	.	24ee-\	.	.	.	.	.	.	.	.	.	.	.	.	.	.	.	.	.	.	.
.	.	.	.	.	24ff\JJ	.	.	.	.	.	.	.	.	.	.	.	.	.	.	.	.	.	.	.
!	!	!	!LO:TUP:a:problem:klamra łukowa	!	!LO:TUP:a:problem:klamra łukowa	!	!	!	!	!	!	!	!	!	!	!	!	!	!	!	!	!	!	!
8A-\	.	.	24cc\L	.	24aa-\LL	.	.	.	.	.	.	.	.	.	.	.	.	.	8A-\	.	.	.	.	.
.	.	.	24b-\	.	24gg\	.	.	.	.	.	.	.	.	.	.	.	.	.	.	.	.	.	.	.
.	.	.	24a-\JJ	.	24ff\JJ	.	.	.	.	.	.	.	.	.	.	.	.	.	.	.	.	.	.	.
!!mixed beam:problem
!	!	!	!	!	!	!	!LO:TX:a:t=P:problem:mixed beam	!	!	!	!	!	!	!	!	!	!	!	!	!	!	!	!	!
8B-\	.	4 x	8g/L	.	8ee-\L	.	8B-\L	.	4B-\	.	8f\L	.	8ee-\L	.	8e-\L	.	8g\L	.	8B-\	.	8ee-\L	.	8gg\L	.
8BB-/J	.	2 x	8f/J	.	8dd\J	.	8BB-/J	.	.	.	8f\J	.	8dd\J	.	8B-\J	.	8f\J	.	8BB-/J	.	8dd\J	.	8ff\J	.
!	!	!	!	!	!	!	!	!	!LO:LB:g=original	!	!	!	!	!	!LO:LB:g=original	!	!	!	!	!	!	!	!	!
=63	=63	=63	=63	=63	=63	=63	=63	=63	=63	=63	=63	=63	=63	=63	=63	=63	=63	=63	=63	=63	=63	=63	=63	=63
4E-\	.	.	8g/L	.	16ee-\LL	.	4E-\	-bis	4B-\	-bis	4g\	-bis	4ee-\	-bis	4G/	.	4e-\	.	4E-\	.	4ee-\	.	4gg\	.
.	.	.	.	.	16b-\	.	.	.	.	.	.	.	.	.	.	.	.	.	.	.	.	.	.	.
.	.	.	16g/L	.	16ee-\	.	.	.	.	.	.	.	.	.	.	.	.	.	.	.	.	.	.	.
.	.	.	16b-/JJ	.	16gg\JJ	.	.	.	.	.	.	.	.	.	.	.	.	.	.	.	.	.	.	.
!	!LO:DY:a:rj:t=p&colon;	!	!	!	!	!	!	!	!	!	!	!	!	!	!	!	!	!	!	!	!	!	!	!
8r	p	.	16b-/LL	.	16gg\LL	.	4r	.	4r	.	4r	.	4r	.	4r	.	4r	.	4r	.	4r	.	4r	.
.	.	.	16a-/	.	16ff\	.	.	.	.	.	.	.	.	.	.	.	.	.	.	.	.	.	.	.
8BB-/	.	.	16g/	.	16ee-\	.	.	.	.	.	.	.	.	.	.	.	.	.	.	.	.	.	.	.
.	.	.	16f/JJ	.	16dd\JJ	.	.	.	.	.	.	.	.	.	.	.	.	.	.	.	.	.	.	.
!	!	!	!LO:LB:g=original	!	!	!	!	!	!	!	!	!LO:LB:g=original	!	!	!	!	!	!	!	!	!	!	!	!
=64	=64	=64	=64	=64	=64	=64	=64	=64	=64	=64	=64	=64	=64	=64	=64	=64	=64	=64	=64	=64	=64	=64	=64	=64
4E-\	.	.	8g/L	.	16ee-\LL	.	2r	.	2r	.	2r	.	2r	.	2r	.	2r	.	2r	.	2r	.	2r	.
.	.	.	.	.	16b-\	.	.	.	.	.	.	.	.	.	.	.	.	.	.	.	.	.	.	.
.	.	.	16e-/L	.	16g\	.	.	.	.	.	.	.	.	.	.	.	.	.	.	.	.	.	.	.
.	.	.	16g/JJ	.	16b-\JJ	.	.	.	.	.	.	.	.	.	.	.	.	.	.	.	.	.	.	.
8r	.	.	16g/LL	.	16b-/LL	.	.	.	.	.	.	.	.	.	.	.	.	.	.	.	.	.	.	.
.	.	.	16f/	.	16a-/	.	.	.	.	.	.	.	.	.	.	.	.	.	.	.	.	.	.	.
8BB-/	.	.	16e-/	.	16g/	.	.	.	.	.	.	.	.	.	.	.	.	.	.	.	.	.	.	.
.	.	.	16d/JJ	.	16f/JJ	.	.	.	.	.	.	.	.	.	.	.	.	.	.	.	.	.	.	.
=65	=65	=65	=65	=65	=65	=65	=65	=65	=65	=65	=65	=65	=65	=65	=65	=65	=65	=65	=65	=65	=65	=65	=65	=65
!	!	!	!	!	!	!	!	!	!LO:TX:b:t=Verte Allo	!	!	!	!	!	!	!	!	!	!	!	!	!	!	!
8E-\L	.	.	8e-/L	.	8g/L	.	2r;>	.	2r;>	.	2r;>	.	2r;>	.	2r;>	.	2r;>	.	2r;>	.	2r;>	.	2r;>	.
8E-\	.	.	8e-/	.	8g/	.	.	.	.	.	.	.	.	.	.	.	.	.	.	.	.	.	.	.
8E-;>\J	.	.	8e-/J	.	8g/J	.	.	.	.	.	.	.	.	.	.	.	.	.	.	.	.	.	.	.
!	!	!	!LO:TX:b:t=Verte. Allo	!	!	!	!LO:LB:g=original	!	!LO:PB:g=original	!	!	!	!	!	!	!	!	!	!	!	!	!	!	!
8r	.	.	8r;>	.	8r;>	.	.	.	.	.	.	.	.	.	.	.	.	.	.	.	.	.	.	.
!	!	!	!LO:PB:g=original	!	!	!	!	!	!	!	!	!	!	!	!	!	!	!	!	!	!	!	!	!
=66	=66	=66	=66	=66	=66	=66	=66	=66	=66	=66	=66	=66	=66	=66	=66	=66	=66	=66	=66	=66	=66	=66	=66	=66
!LO:TX:a:t=allo tuti:rj	!	!	!	!	!	!	!	!	!	!	!	!	!	!	!	!	!	!	!	!	!	!	!	!
!	!	!	!LO:TX:a:t=Allo&colon;	!	!LO:TX:a:t=allo&colon;	!	!LO:TX:a:t=allo	!	!LO:TX:a:t=Allo	!	!LO:TX:a:t=allo	!	!LO:TX:b:t=allo&colon;	!	!LO:TX:a:t=Allo&colon;	!	!LO:TX:a:t=allo&colon;	!	!LO:TX:a:t=allo&colon;	!	!LO:TX:a:t=allo&colon;	!	!LO:TX:a:t=allo&colon;	!
8E-\L	.	.	8e-\L 8b- 8gg	.	8e-\L 8b- 8gg	.	4e-\	Chriſ-	4B-\	Chriſ-	4g\	Chriſ-	4ee-\	Chriſ-	4e-\	.	4g\	.	8E-\L	.	4b-\	.	4gg\	.
8e-\	.	.	(>32gg\LL	.	(>32gg\LL	.	.	.	.	.	.	.	.	.	.	.	.	.	8e-\	.	.	.	.	.
.	.	.	32ff\	.	32ff\	.	.	.	.	.	.	.	.	.	.	.	.	.	.	.	.	.	.	.
.	.	.	32gg\)	.	32gg\)	.	.	.	.	.	.	.	.	.	.	.	.	.	.	.	.	.	.	.
.	.	.	32aa-\JJJ	.	32aa-\JJJ	.	.	.	.	.	.	.	.	.	.	.	.	.	.	.	.	.	.	.
8d\	.	6: x	16bb-\LL	.	16bb-\LL	.	4d\	-te	4B-\	-te	4a-\	-te	4ff\	-te	4B-/	.	4f\	.	8d\	.	4b-\	.	4ff\	.
.	.	.	16aa-\	.	16aa-\	.	.	.	.	.	.	.	.	.	.	.	.	.	.	.	.	.	.	.
8d\J	.	.	16gg\	.	16gg\	.	.	.	.	.	.	.	.	.	.	.	.	.	8d\J	.	.	.	.	.
.	.	.	16ff\JJ	.	16ff\JJ	.	.	.	.	.	.	.	.	.	.	.	.	.	.	.	.	.	.	.
!LO:LB:g=original	!	!	!	!	!LO:LB:g=original	!	!	!	!	!	!	!	!	!	!	!	!	!	!	!	!	!	!	!
=67	=67	=67	=67	=67	=67	=67	=67	=67	=67	=67	=67	=67	=67	=67	=67	=67	=67	=67	=67	=67	=67	=67	=67	=67
8c\L	.	.	16ff\LL	.	16ff\LL	.	8.c\	au-	8.c\	au-	8.g\	au-	8.ee-\	au-	4e-\	.	4g\	.	8c\L	.	4g/	.	4ee-\	.
.	.	.	16ee-\	.	16ee-\	.	.	.	.	.	.	.	.	.	.	.	.	.	.	.	.	.	.	.
8c\	.	.	16dd\	.	16dd\	.	.	.	.	.	.	.	.	.	.	.	.	.	8c\	.	.	.	.	.
.	.	.	16ee-\JJ	.	16ee-\JJ	.	16c\	-di	16c\	-di	16g\	-di	16ee-\	-di	.	.	.	.	.	.	.	.	.	.
!	!	!	!	!	!	!	!	!	!	!	!	!	!LO:LB:g=original	!	!	!	!	!	!	!	!	!	!	!
8G\	.	6 x	8ee-\L	.	16b-\LL	.	8G\	nos	8B-\	nos	8f\	nos	8ee-\	nos	4e-\	.	4g\	.	8G\	.	4g/	.	4ee-\	.
.	.	.	.	.	16ee-\	.	.	.	.	.	.	.	.	.	.	.	.	.	.	.	.	.	.	.
8G\J	.	.	8ee-\J	.	16gg\	.	8G\	Chriſ-	8B-\	Chriſ-	8f\	Chriſ-	8ee-\	Chriſ-	.	.	.	.	8G\J	.	.	.	.	.
.	.	.	.	.	16bb-\JJ	.	.	.	.	.	.	.	.	.	.	.	.	.	.	.	.	.	.	.
=68	=68	=68	=68	=68	=68	=68	=68	=68	=68	=68	=68	=68	=68	=68	=68	=68	=68	=68	=68	=68	=68	=68	=68	=68
!!mixed beam:problem
!LO:TX:a:t=P:problem:mixed beam	!	!	!	!	!	!	!	!	!	!	!	!	!	!	!	!	!	!	!LO:TX:a:t=P:problem:mixed beam	!	!	!	!	!
8A-\L	.	6 x	(<8.cc/L	.	16aa-\LL	.	8A-\	-te	8c\	-te	8a-\	-te	8ff\	-te	4f\	.	4a-\	.	8A-\L	.	4a-/	.	4ff\	.
.	.	.	.	.	16gg\	.	.	.	.	.	.	.	.	.	.	.	.	.	.	.	.	.	.	.
8A-\	.	.	.	.	16aa-\	.	8A-\	ex-	8c\	ex-	8a-\	ex-	8ff\	ex-	.	.	.	.	8A-\	.	.	.	.	.
.	.	.	16a-/Jk)	.	16ff\JJ	.	.	.	.	.	.	.	.	.	.	.	.	.	.	.	.	.	.	.
8B-\	.	4 x	(<16a-/LL	.	16ff\LL	.	8B-\	-au-	8B-\	-au-	8g\	-au-	8ee-\	-au-	8e-\L	.	8g\L	.	8B-\	.	8g/L	.	8ee-\L	.
.	.	.	16g/)	.	16ee-\	.	.	.	.	.	.	.	.	.	.	.	.	.	.	.	.	.	.	.
!	!	!	!	!	!	!	!	!	!	!	!	!	!	!	!	!	!	!	!	!	!	!	!LO:TX:a:t=Soli	!
8BB-/J	.	2	(<16g/	.	16ee-\	.	8BB-/	-di	8B-\	-di	8f\	-di	8dd\	-di	8B-\J	.	8f\J	.	8BB-/J	.	8f/J	.	8dd\J	.
.	.	.	16f/JJ)	.	16dd\JJ	.	.	.	.	.	.	.	.	.	.	.	.	.	.	.	.	.	.	.
!	!	!	!	!	!	!	!	!	!	!	!	!	!	!	!	!	!LO:LB:g=original	!	!LO:LB:g=original	!	!	!	!	!
=69	=69	=69	=69	=69	=69	=69	=69	=69	=69	=69	=69	=69	=69	=69	=69	=69	=69	=69	=69	=69	=69	=69	=69	=69
!	!	!	!	!	!	!	!	!	!	!	!	!	!	!	!LO:TX:a:t=Soli	!	!LO:TX:a:t=Soli	!	!LO:TX:a:t=Soli	!	!LO:TX:a:t=Soli	!	!	!
4E-\	.	.	4g/	.	4ee-\	.	4E-\	nos	4B-\	nos	4g\	nos	4ee-\	nos	4G/	.	4e-\	.	8E-\L	.	8g\L	.	8ee-\L	.
.	.	.	.	.	.	.	.	.	.	.	.	.	.	.	.	.	.	.	8E-\	.	16ee-\L	.	(>16gg\L	.
.	.	.	.	.	.	.	.	.	.	.	.	.	.	.	.	.	.	.	.	.	16ff\JJ	.	16aa-\JJ)	.
!	!	!	!	!	!	!	!	!	!	!	!	!	!	!	!	!	!	!	!	!	!	!	!LO:LB:g=original	!
4r	.	.	4r	.	4r	.	4r	.	4r	.	4r	.	4r	.	4G/	.	4e-\	.	8E-\	.	8gg\L	.	8bb-'>\L	.
.	.	.	.	.	.	.	.	.	.	.	.	.	.	.	.	.	.	.	8E-\J	.	8gg\J	.	8bb-'>\J	.
!	!	!	!	!	!	!	!	!	!	!	!	!	!	!	!	!	!	!	!	!	!LO:LB:g=original	!	!	!
=70	=70	=70	=70	=70	=70	=70	=70	=70	=70	=70	=70	=70	=70	=70	=70	=70	=70	=70	=70	=70	=70	=70	=70	=70
2r	.	.	2r	.	2r	.	1r	.	1r	.	1r	.	1r	.	4B-/	.	4f\	.	8D\L	.	(>8ff\L	.	(>8.bb-\L	.
.	.	.	.	.	.	.	.	.	.	.	.	.	.	.	.	.	.	.	8D\	.	16gg\L	.	.	.
.	.	.	.	.	.	.	.	.	.	.	.	.	.	.	.	.	.	.	.	.	16ff\JJ)	.	16aa-\Jk)	.
.	.	.	.	.	.	.	.	.	.	.	.	.	.	.	8e-\L	.	8g\L	.	8E-\	.	(>16ff\LL	.	(>16aa-\LL	.
.	.	.	.	.	.	.	.	.	.	.	.	.	.	.	.	.	.	.	.	.	16ee-\)	.	16gg\)	.
.	.	.	.	.	.	.	.	.	.	.	.	.	.	.	8e-\J	.	8g\J	.	8E-\J	.	(>16dd\	.	(>16ff\	.
.	.	.	.	.	.	.	.	.	.	.	.	.	.	.	.	.	.	.	.	.	16ee-\JJ)	.	16gg\JJ)	.
=71	=71	=71	=71	=71	=71	=71	=71-	=71	=71-	=71	=71-	=71	=71-	=71	=71	=71	=71	=71	=71	=71	=71	=71	=71	=71
!!mixed beam:problem
!	!LO:DY:a:rj:t=p&colon;	!	!	!	!	!LO:DY:a:t=p&colon;	!	!	!	!	!	!	!	!	!	!	!	!	!LO:TX:a:t=P:problem:mixed beam	!	!	!	!	!
8r	p	.	8r	.	8r	p	.	.	.	.	.	.	.	.	8f\L	.	8a-\L	.	8A-\L	.	8cc\L	.	8aa-\L	.
!!mixed beam:problem
!LO:TX:a:t=P:problem:mixed beam	!	!	!	!	!	!	!	!	!	!	!	!	!	!	!	!	!	!	!	!	!	!	!	!
8A-\L	.	6 x	8f/L	.	8a-/L	.	.	.	.	.	.	.	.	.	8f\	.	8a-\	.	8A-\	.	16cc\L	.	16aa-\L	.
.	.	.	.	.	.	.	.	.	.	.	.	.	.	.	.	.	.	.	.	.	16a-\JJ	.	16ff\JJ	.
8B-\	.	4 x	8e-/	.	8g/	.	.	.	.	.	.	.	.	.	8e-\	.	8g\	.	8B-\	.	8g/L	.	8ee-\L	.
!	!	!	!	!	!	!	!	!	!	!	!LO:LB:g=original	!	!	!	!	!	!	!	!	!	!	!	!	!
8BB-\J	.	2 x	8d/J	.	8f/J	.	.	.	.	.	.	.	.	.	8B-\J	.	8f\J	.	8BB-/J	.	8f/J	.	8dd\J	.
!	!	!	!LO:LB:g=original	!	!	!	!	!	!	!	!	!	!	!	!	!	!	!	!	!	!	!	!	!
=72	=72	=72	=72	=72	=72	=72	=72	=72	=72	=72	=72	=72	=72	=72	=72	=72	=72	=72	=72	=72	=72	=72	=72	=72
!!mixed beam:problem
!	!LO:DY:a:rj:t=f&colon;	!	!LO:TX:a:t=P:problem:mixed beam	!	!LO:TX:a:t=P:problem:mixed beam	!LO:DY:a	!	!	!	!	!	!	!	!	!	!LO:DY:a:rj:t=f.	!	!LO:DY:a:rj:t=f&colon;	!	!LO:DY:a:rj:t=f&colon;	!	!LO:DY:a:rj:t=f&colon;	!	!LO:DY:a
8E-\L	f	.	8e-/L	.	8g/L	f	4e-\	Chriſ-	4B-\	Chriſ-	4g\	Chriſ-	4ee-\	Chriſ-	4G/	f	4e-\	f	8E-\L	f	4g/	f	4ee-\	f
8e-\	.	.	(>32gg\LL	.	(>32gg\LL	.	.	.	.	.	.	.	.	.	.	.	.	.	8e-\	.	.	.	.	.
.	.	.	32ff\	.	32ff\	.	.	.	.	.	.	.	.	.	.	.	.	.	.	.	.	.	.	.
.	.	.	32gg\	.	32gg\	.	.	.	.	.	.	.	.	.	.	.	.	.	.	.	.	.	.	.
.	.	.	32aa-\JJJ)	.	32aa-\JJJ)	.	.	.	.	.	.	.	.	.	.	.	.	.	.	.	.	.	.	.
8d\	.	6 x	16bb-\LL	.	16bb-\LL	.	4d\	-te	4B-\	-te	4a-\	-te	4ff\	-te	4B-/	.	4f\	.	8d\	.	4b-\	.	4ff\	.
.	.	.	16aa-\	.	16aa-\	.	.	.	.	.	.	.	.	.	.	.	.	.	.	.	.	.	.	.
8d\J	.	.	16gg\	.	16gg\	.	.	.	.	.	.	.	.	.	.	.	.	.	8d\J	.	.	.	.	.
.	.	.	16ff\JJ	.	16ff\JJ	.	.	.	.	.	.	.	.	.	.	.	.	.	.	.	.	.	.	.
!	!	!	!	!	!	!	!	!	!LO:LB:g=original	!	!	!	!	!	!LO:LB:g=original	!	!	!	!	!	!	!	!	!
=73	=73	=73	=73	=73	=73	=73	=73	=73	=73	=73	=73	=73	=73	=73	=73	=73	=73	=73	=73	=73	=73	=73	=73	=73
8c\L	.	.	16ff\LL	.	16ff\LL	.	8.c\	au-	8.c\	au-	8.g\	au-	8.ee-\	au-	4e-\	.	4g\	.	8c\L	.	4ee-\	.	4gg\	.
.	.	.	16ee-\	.	16ee-\	.	.	.	.	.	.	.	.	.	.	.	.	.	.	.	.	.	.	.
8c\	.	.	16dd\	.	16dd\	.	.	.	.	.	.	.	.	.	.	.	.	.	8c\	.	.	.	.	.
.	.	.	16ee-\JJ	.	16ee-\JJ	.	16c\	-di	16c\	-di	16g\	-di	16ee-\	-di	.	.	.	.	.	.	.	.	.	.
!	!	!	!	!	!LO:LB:g=original	!	!LO:LB:g=original	!	!	!	!	!	!	!	!	!	!	!	!	!	!	!	!	!
8G\	.	6 x	8b-\L	.	16b-\LL	.	8G\	nos	8B-\	nos	8g\	nos	8ee-\	nos	4e-\	.	4g\	.	8G\	.	4ee-\	.	4gg\	.
.	.	.	.	.	16ee-\	.	.	.	.	.	.	.	.	.	.	.	.	.	.	.	.	.	.	.
8G\J	.	.	8b-\J	.	16gg\	.	8G\	Chriſ-	8B-\	Chriſ-	8g\	Chriſ-	8ee-\	Chriſ-	.	.	.	.	8G\J	.	.	.	.	.
.	.	.	.	.	16ee-\JJ	.	.	.	.	.	.	.	.	.	.	.	.	.	.	.	.	.	.	.
!	!	!	!	!	!	!	!	!	!	!	!	!	!LO:LB:g=original	!	!	!	!	!	!	!	!	!	!	!
=74	=74	=74	=74	=74	=74	=74	=74	=74	=74	=74	=74	=74	=74	=74	=74	=74	=74	=74	=74	=74	=74	=74	=74	=74
8A-\L	.	6: x	8cc\L	.	16een\LL	.	8A-\	-te	8c\	-te	8a-\	-te	8ff\	-te	4f\	.	4a-\	.	8A-\L	.	4ff\	.	4aa-\	.
.	.	.	.	.	16ff\	.	.	.	.	.	.	.	.	.	.	.	.	.	.	.	.	.	.	.
8A-\	.	.	8cc\	.	16ee\	.	8A-\	ex-	8c\	ex-	8a-\	ex-	8ff\	ex-	.	.	.	.	8A-\	.	.	.	.	.
.	.	.	.	.	16ff\JJ	.	.	.	.	.	.	.	.	.	.	.	.	.	.	.	.	.	.	.
8A-\	.	.	8cc\	.	16aa-\LL	.	8A-\	-au-	8c\	-au-	8a-\	-au-	8ff\	-au-	8f\L	.	8a-\L	.	8A-\	.	8ff\L	.	8aa-\L	.
.	.	.	.	.	16ff\	.	.	.	.	.	.	.	.	.	.	.	.	.	.	.	.	.	.	.
8An\J	.	5 x	8cc\J	.	16gg\	.	8An\	-di	8c\	-di	8g\	-di	8ee-\	-di	8e-\J	.	8g\J	.	8An\J	.	8ee-\J	.	8gg\J	.
.	.	.	.	.	16ee-X\JJ	.	.	.	.	.	.	.	.	.	.	.	.	.	.	.	.	.	.	.
!LO:LB:g=original	!	!	!	!	!	!	!	!	!	!	!	!	!	!	!	!	!	!	!	!	!	!	!	!
=75	=75	=75	=75	=75	=75	=75	=75	=75	=75	=75	=75	=75	=75	=75	=75	=75	=75	=75	=75	=75	=75	=75	=75	=75
!!mixed beam:problem
!LO:TX:a:t=P:problem:mixed beam	!	!	!	!	!	!	!	!	!	!	!	!	!	!	!	!	!	!	!LO:TX:a:t=P:problem:mixed beam	!	!	!	!	!
8B-\L	.	.	16g/LL	.	16ee-\LL	.	4B-\	nos	4B-\	nos	4f\	nos	4dd\	nos	4B-/	.	4f\	.	8B-\L	.	4dd\	.	4ff\	.
.	.	.	16f/J	.	16dd\J	.	.	.	.	.	.	.	.	.	.	.	.	.	.	.	.	.	.	.
8BB-/J	.	.	8f/J	.	8dd\J	.	.	.	.	.	.	.	.	.	.	.	.	.	8BB-/J	.	.	.	.	.
8r	.	.	(<16d/LL	.	16dd\LL	.	8r	.	8r	.	8r	.	8r	.	8r	.	8r	.	8r	.	8r	.	8r	.
.	.	.	16f/)	.	16ff\	.	.	.	.	.	.	.	.	.	.	.	.	.	.	.	.	.	.	.
8D\	.	6 5	(<16b-/	.	16bb-\	.	(>8D\	Chriſ-	[<8B-\	Chriſ-	(>8a-\	Chriſ-	(>8ff\	Chriſ-	8B-/	.	8f\	.	8D\	.	8b-\	.	8aa-\	.
.	.	.	16a-/JJ)	.	16aa-\JJ	.	.	.	.	.	.	.	.	.	.	.	.	.	.	.	.	.	.	.
!	!	!	!	!	!	!	!	!	!	!	!	!	!	!	!	!	!	!	!LO:LB:g=original	!	!	!	!	!
=76	=76	=76	=76	=76	=76	=76	=76	=76	=76	=76	=76	=76	=76	=76	=76	=76	=76	=76	=76	=76	=76	=76	=76	=76
8E-\L	.	.	(<16g/LL	.	16gg\LL	.	8E-\L)	.	4B-\]	.	8g\L)	.	8ee-\L)	.	8e-\L	.	8g\L	.	8E-\L	.	2b-\	.	8gg\L	.
.	.	.	16b-/)	.	16bb-\	.	.	.	.	.	.	.	.	.	.	.	.	.	.	.	.	.	.	.
8A-\	.	4 2	(<16d/	.	16dd\	.	8A-\J	.	.	.	8f\J	.	8dd\J	.	8B-\	.	8f\	.	8A-\	.	.	.	8ff\J	.
.	.	.	16f/JJ)	.	16ff\JJ	.	.	.	.	.	.	.	.	.	.	.	.	.	.	.	.	.	.	.
!	!	!	!	!	!	!	!	!	!	!	!	!	!	!	!	!	!	!	!	!	!	!	!LO:LB:g=original	!
8G\	.	6 x	(<16e-/LL	.	16ee-\LL	.	8G\L	-te	4B-\	-te	8g\L	-te	8ee-\L	-te	8e-\	.	8g\	.	8G\	.	.	.	8ee-\L	.
.	.	.	16g/)	.	16gg\	.	.	.	.	.	.	.	.	.	.	.	.	.	.	.	.	.	.	.
8D\J	.	6 5	(<16f/	.	16ff\	.	8D\J	.	.	.	8a-\J	.	8ff\J	.	8f\J	.	8a-\J	.	8D\J	.	.	.	8aa-\J	.
.	.	.	16a-/JJ)	.	16aa-\JJ	.	.	.	.	.	.	.	.	.	.	.	.	.	.	.	.	.	.	.
!	!	!	!LO:LB:g=original	!	!	!	!	!	!	!	!LO:LB:g=original	!	!	!	!	!	!	!	!	!	!	!	!	!
=77	=77	=77	=77	=77	=77	=77	=77	=77	=77	=77	=77	=77	=77	=77	=77	=77	=77	=77	=77	=77	=77	=77	=77	=77
8E-\L	.	.	(<16g/LL	.	16gg\LL	.	8E-\L	au-	4B-\	au-	8g\L	au-	8ee-\L	au-	8e-\L	.	8g\L	.	8E-\L	.	2b-\	.	8gg\L	.
.	.	.	16b-/)	.	16bb-\	.	.	.	.	.	.	.	.	.	.	.	.	.	.	.	.	.	.	.
8A-\	.	4 2	(<16d/	.	16dd\	.	8A-\J	.	.	.	8f\J	.	8dd\J	.	8B-\	.	8f\	.	8A-\	.	.	.	8ff\	.
.	.	.	16f/JJ)	.	16ff\JJ	.	.	.	.	.	.	.	.	.	.	.	.	.	.	.	.	.	.	.
8G\	.	6 x	(<16e-/LL	.	16ee-\LL	.	8G\L	-di	4B-\	-di	8g\L	-di	8ee-\L	-di	8e-\	.	8g\	.	8G\	.	.	.	8ee-\	.
.	.	.	16g/)	.	16gg\	.	.	.	.	.	.	.	.	.	.	.	.	.	.	.	.	.	.	.
8D\J	.	6 5	(<16f/	.	16ff\	.	8D\J	.	.	.	8a-\J	.	8ff\J	.	8f\J	.	8a-\J	.	8D\J	.	.	.	8aa-\J	.
.	.	.	16a-/JJ)	.	16aa-\JJ	.	.	.	.	.	.	.	.	.	.	.	.	.	.	.	.	.	.	.
!	!	!	!	!	!	!	!	!	!	!	!	!	!	!	!	!	!LO:LB:g=original	!	!	!	!LO:LB:g=original	!	!	!
=78	=78	=78	=78	=78	=78	=78	=78	=78	=78	=78	=78	=78	=78	=78	=78	=78	=78	=78	=78	=78	=78	=78	=78	=78
8E-\L	.	.	16g/LL	.	16gg\LL	.	4E-\	nos	4B-\	nos	4g\	nos	4ee-\	nos	4e-\	.	4g\	.	8E-\L	.	4b-\	.	4gg\	.
.	.	.	16b-/	.	16bb-\	.	.	.	.	.	.	.	.	.	.	.	.	.	.	.	.	.	.	.
8E-\	.	.	16a-/	.	16aa-\	.	.	.	.	.	.	.	.	.	.	.	.	.	8E-\	.	.	.	.	.
.	.	.	16g/JJ	.	16gg\JJ	.	.	.	.	.	.	.	.	.	.	.	.	.	.	.	.	.	.	.
!	!	!	!	!	!LO:LB:g=original	!	!	!	!	!	!	!	!	!	!	!	!	!	!	!	!	!	!	!
8G\	.	6 x	16f/LL	.	16ff\LL	.	4G\	Chriſ-	4B-\	Chriſ-	4g\	Chriſ-	4ee-\	Chriſ-	4e-\	.	4g\	.	8G\	.	4ee-\	.	4gg\	.
.	.	.	16e-/	.	16ee-\	.	.	.	.	.	.	.	.	.	.	.	.	.	.	.	.	.	.	.
8G\J	.	.	16d/	.	16dd\	.	.	.	.	.	.	.	.	.	.	.	.	.	8G\J	.	.	.	.	.
.	.	.	16e-/JJ	.	16ee-\JJ	.	.	.	.	.	.	.	.	.	.	.	.	.	.	.	.	.	.	.
!	!	!	!	!	!	!	!LO:LB:g=original	!	!LO:LB:g=original	!	!	!	!LO:LB:g=original	!	!	!	!	!	!	!	!	!	!	!
=79	=79	=79	=79	=79	=79	=79	=79	=79	=79	=79	=79	=79	=79	=79	=79	=79	=79	=79	=79	=79	=79	=79	=79	=79
!!mixed beam:problem
!LO:TX:a:t=P:problem:mixed beam	!	!	!	!	!	!	!	!	!	!	!	!	!	!	!	!	!	!	!LO:TX:a:t=P:problem:mixed beam	!	!	!	!	!
8A-\L	.	6 x	8f/L	.	8ff\L	.	8A-\	-te	8c\	-te	8a-\	-te	8ff\	-te	4f\	.	4a-\	.	8A-\L	.	4ff\	.	4aa-\	.
8A-\	.	.	8a-/	.	16aa-\L	.	8A-\	ex-	8c\	ex-	8a-\	ex-	8ff\	ex-	.	.	.	.	8A-\	.	.	.	.	.
.	.	.	.	.	16ff\JJ	.	.	.	.	.	.	.	.	.	.	.	.	.	.	.	.	.	.	.
8B-\	.	4 x	8g/	.	8ee-\L	.	8B-\	-au-	8B-\	-au-	8g\	-au-	8ee-\	-au-	8e-\L	.	8g\L	.	8B-\	.	8ee-\L	.	8gg\L	.
!	!	!	!	!	!	!	!	!	!	!	!	!	!	!	!LO:TX:a:t=Soli	!	!LO:TX:a:t=Soli	!	!	!	!LO:TX:a:t=Soli	!	!LO:TX:a:t=Soli	!
8BB-/J	.	2 x	8f/J	.	8dd\J	.	8BB-/	-di	8B-\	-di	8f\	-di	8dd\	-di	8B-\J	.	8f\J	.	8BB-/J	.	8dd\J	.	8ff\J	.
=80	=80	=80	=80	=80	=80	=80	=80	=80	=80	=80	=80	=80	=80	=80	=80	=80	=80	=80	=80	=80	=80	=80	=80	=80
!	!	!	!	!	!	!	!	!	!	!	!	!	!	!	!	!	!	!	!LO:TX:a:t=Soli	!	!	!	!	!
4E-\	.	.	4g/	.	4ee-\	.	4E-\	nos	4B-\	nos	4g\	nos	4ee-\	nos	4G/	.	4e-\	.	8E-\L	.	(>8.ee-\L	.	(>8.gg\L	.
.	.	.	.	.	.	.	.	.	.	.	.	.	.	.	.	.	.	.	8E-\	.	.	.	.	.
.	.	.	.	.	.	.	.	.	.	.	.	.	.	.	.	.	.	.	.	.	16gg\Jk)	.	16bb-\Jk)	.
4r	.	.	4r	.	4r	.	4r	.	4r	.	4r	.	4r	.	4G/	.	4e-\	.	8E-\	.	(>8.g\L	.	(>8.ee-\L	.
.	.	.	.	.	.	.	.	.	.	.	.	.	.	.	.	.	.	.	8E-\J	.	.	.	.	.
.	.	.	.	.	.	.	.	.	.	.	.	.	.	.	.	.	.	.	.	.	16ee-\Jk)	.	16gg\Jk)	.
=81	=81	=81	=81	=81	=81	=81	=81	=81	=81	=81	=81	=81	=81	=81	=81	=81	=81	=81	=81	=81	=81	=81	=81	=81
*	*	*	*	*	*	*	*	*	*	*	*	*	*	*	*	*	*	*	*tremolo	*	*	*	*	*
0r	.	.	0r	.	0r	.	0r	.	0r	.	0r	.	0r	.	4B-/	.	4f\	.	8BB-/L	.	8dd'>\L	.	8ff'>\L	.
.	.	.	.	.	.	.	.	.	.	.	.	.	.	.	.	.	.	.	8BB-/	.	(>16dd\L	.	(>16ff\L	.
.	.	.	.	.	.	.	.	.	.	.	.	.	.	.	.	.	.	.	.	.	16ff\JJ)	.	16aa-\JJ)	.
.	.	.	.	.	.	.	.	.	.	.	.	.	.	.	8e-/L	.	8g\L	.	8BB-/	.	8ee-'>\L	.	8gg'>\L	.
.	.	.	.	.	.	.	.	.	.	.	.	.	.	.	8B-/J	.	8f\J	.	8BB-/J	.	8dd'>\J	.	8ff'>\J	.
!	!	!	!	!	!	!	!	!	!	!	!	!	!	!	!LO:LB:g=original	!	!	!	!	!	!	!	!	!
=82-	=82	=82	=82-	=82	=82-	=82	=82-	=82	=82-	=82	=82-	=82	=82-	=82	=82	=82	=82	=82	=82	=82	=82	=82	=82	=82
.	.	.	.	.	.	.	.	.	.	.	.	.	.	.	4G/	.	4e-\	.	8E-\L	.	(>8.ee-\L	.	(>8.gg\L	.
.	.	.	.	.	.	.	.	.	.	.	.	.	.	.	.	.	.	.	8E-\	.	.	.	.	.
.	.	.	.	.	.	.	.	.	.	.	.	.	.	.	.	.	.	.	.	.	16gg\Jk)	.	16bb-\Jk)	.
.	.	.	.	.	.	.	.	.	.	.	.	.	.	.	4G/	.	4e-\	.	8E-\	.	(>8.g\L	.	(>8.ee-\L	.
.	.	.	.	.	.	.	.	.	.	.	.	.	.	.	.	.	.	.	8E-\J	.	.	.	.	.
.	.	.	.	.	.	.	.	.	.	.	.	.	.	.	.	.	.	.	.	.	16ee-\Jk)	.	16gg\Jk)	.
!	!	!	!	!	!	!	!	!	!	!	!	!	!	!	!	!	!	!	!	!	!	!	!LO:LB:g=original	!
=83-	=83	=83	=83-	=83	=83-	=83	=83-	=83	=83-	=83	=83-	=83	=83-	=83	=83	=83	=83	=83	=83	=83	=83	=83	=83	=83
.	.	.	.	.	.	.	.	.	.	.	.	.	.	.	4B-/	.	4f\	.	8BB-/L	.	8dd'>\L	.	8ff'>\L	.
.	.	.	.	.	.	.	.	.	.	.	.	.	.	.	.	.	.	.	8BB-/	.	(>16dd\L	.	(>16ff\L	.
.	.	.	.	.	.	.	.	.	.	.	.	.	.	.	.	.	.	.	.	.	16ff\JJ)	.	16aa-\JJ)	.
.	.	.	.	.	.	.	.	.	.	.	.	.	.	.	8e-/L	.	8g\L	.	8BB-/	.	8ee-'>\L	.	8gg'>\L	.
.	.	.	.	.	.	.	.	.	.	.	.	.	.	.	8B-/J	.	8f\J	.	8BB-/J	.	8dd'>\J	.	8ff'>\J	.
*	*	*	*	*	*	*	*	*	*	*	*	*	*	*	*	*	*	*	*Xtremolo	*	*	*	*	*
!	!	!	!	!	!	!	!	!	!	!	!	!	!	!	!	!	!	!	!LO:LB:g=original	!	!	!	!	!
=84-	=84	=84	=84-	=84	=84-	=84	=84-	=84	=84-	=84	=84-	=84	=84-	=84	=84	=84	=84	=84	=84	=84	=84	=84	=84	=84
!!mixed beam:problem
!	!	!	!	!	!	!	!	!	!	!	!	!	!	!	!	!	!	!	!LO:TX:a:t=P:problem:mixed beam	!	!	!	!	!
.	.	.	.	.	.	.	.	.	.	.	.	.	.	.	4B-/	.	4e-\	.	8E-\L	.	8ee-\L	.	8gg\L	.
.	.	.	.	.	.	.	.	.	.	.	.	.	.	.	.	.	.	.	8E-\	.	(>32ee-\LL	.	(>32gg\LL	.
.	.	.	.	.	.	.	.	.	.	.	.	.	.	.	.	.	.	.	.	.	32dd\	.	32ff\	.
.	.	.	.	.	.	.	.	.	.	.	.	.	.	.	.	.	.	.	.	.	32ee-\	.	32gg\	.
.	.	.	.	.	.	.	.	.	.	.	.	.	.	.	.	.	.	.	.	.	32ff\JJJ)	.	32aa-\JJJ)	.
!	!	!	!	!	!	!	!	!	!	!	!	!	!	!	!	!	!	!	!	!	!LO:LB:g=original	!	!	!
.	.	.	.	.	.	.	.	.	.	.	.	.	.	.	8e-/L	.	8g\L	.	8B-\	.	8gg'>\L	.	8bb-'>\L	.
.	.	.	.	.	.	.	.	.	.	.	.	.	.	.	8B-/J	.	8f\J	.	8BB-/J	.	8ff'>\J	.	8aa-'>\J	.
=85	=85	=85	=85	=85	=85	=85	=85	=85	=85	=85	=85	=85	=85	=85	=85	=85	=85	=85	=85	=85	=85	=85	=85	=85
8r	.	.	8r	.	8r	.	8r	.	8r	.	8r	.	8r	.	8G/L	.	8e-\L	.	8E-\L	.	8ee-\L	.	8gg'>\L	.
*	*	*	*	*	*	*	*	*	*	*ij	*	*ij	*	*ij	*	*ij	*	*	*	*	*	*	*	*
!!mixed beam:problem
!LO:TX:a:t=P:problem:mixed beam	!	!	!	!	!	!	!	!	!	!	!	!	!	!	!	!	!	!	!	!	!	!	!	!
8E-\L	.	.	8g\L 8ee-	.	8e-\L 8b- 8gg	.	8E-\	ex-	8B-\	ex-	8g\	ex-	8ee-\	ex-	8G/	.	8e-\	.	8E-\	.	8ee-\J	.	8gg'>\J	.
8B-\	.	.	8f\ 8dd	.	8d\ 8b- 8ff	.	8B-\	-au-	8B-\	-au-	8f\	-au-	8dd\	-au-	8B-/	.	8f\	.	8B-\	.	4dd\	.	4ff\	.
8BB-/J	.	.	8f\J 8dd	.	8d\J 8b- 8ff	.	8B-\	-di	8B-\	-di	8f\	-di	8dd\	-di	8B-/J	.	8f\J	.	8B-\J	.	.	.	.	.
!LO:LB:g=original	!	!	!	!	!	!	!	!	!	!	!	!	!	!	!	!	!	!	!	!	!	!	!	!
=86	=86	=86	=86	=86	=86	=86	=86	=86	=86	=86	=86	=86	=86	=86	=86	=86	=86	=86	=86	=86	=86	=86	=86	=86
!	!	!	!	!	!	!	!	!	!	!	!	!	!	!	!	!	!	!	!LO:TX:a:t=P:problem:mixed beam	!	!	!	!	!
4E-\	.	.	4g\ 4ee-	.	4e-\ 4b- 4gg	.	4E-\	nos	4B-\	nos	4g\	nos	4ee-\	nos	4G/	.	4e-\	.	8E-\L	.	8ee-\L	.	8gg\L	.
*	*	*	*	*	*	*	*	*Xij	*	*Xij	*	*Xij	*	*Xij	*	*	*	*	*	*	*	*	*	*
.	.	.	.	.	.	.	.	.	.	.	.	.	.	.	.	.	.	.	8E-\	.	(>32ee-\LL	.	(>32gg\LL	.
.	.	.	.	.	.	.	.	.	.	.	.	.	.	.	.	.	.	.	.	.	32dd\	.	32ff\	.
.	.	.	.	.	.	.	.	.	.	.	.	.	.	.	.	.	.	.	.	.	32ee-\	.	32gg\	.
.	.	.	.	.	.	.	.	.	.	.	.	.	.	.	.	.	.	.	.	.	32ff\JJJ)	.	32aa-\JJJ)	.
4r	.	.	4r	.	4r	.	4r	.	4r	.	4r	.	4r	.	8e-/L	.	8g\L	.	8B-\	.	8gg'>\L	.	8bb-'>\L	.
.	.	.	.	.	.	.	.	.	.	.	.	.	.	.	8B-/J	.	8f\J	.	8BB-/J	.	8ff'>\J	.	8aa-'>\J	.
!	!	!	!LO:LB:g=original	!	!	!	!	!	!	!	!LO:LB:g=original	!	!	!	!	!	!LO:LB:g=original	!	!	!	!	!	!	!
=87	=87	=87	=87	=87	=87	=87	=87	=87	=87	=87	=87	=87	=87	=87	=87	=87	=87	=87	=87	=87	=87	=87	=87	=87
8r	.	.	8r	.	8r	.	8r	.	8r	.	8r	.	8r	.	8G/L	.	8e-\L	.	8E-\L	.	8ee-\L	.	8gg'>\L	.
*	*	*	*	*	*	*	*	*ij	*	*ij	*	*	*	*	*	*	*	*	*	*	*	*	*	*
!!mixed beam:problem
!LO:TX:a:t=P:problem:mixed beam	!	!	!	!	!	!	!	!	!	!	!	!	!	!	!	!	!	!	!	!	!	!	!	!
8E-\L	.	.	8g\L 8ee-	.	8e-\L 8b- 8gg	.	8E-\	ex-	8B-\	ex-	8g\	Ex-	8ee-\	ex-	8G/	.	8e-\	.	8E-\	.	8ee-\J	.	8gg'>\J	.
8B-\	.	.	8f\ 8dd	.	8d\ 8b- 8ff	.	8B-\	-au-	8B-\	-au-	8f\	-au-	8dd\	-au-	8B-/	.	8f\	.	8B-\	.	4dd\	.	4ff\	.
8BB-/J	.	.	8f\J 8dd	.	8d\J 8b- 8ff	.	8B-\	-di	8B-\	-di	8f\	-di	8dd\	-di	8B-/J	.	8f\J	.	8B-\J	.	.	.	.	.
!	!	!	!	!	!	!	!	!	!	!	!	!	!LO:LB:g=original	!	!	!	!	!	!	!	!	!	!	!
=88	=88	=88	=88	=88	=88	=88	=88	=88	=88	=88	=88	=88	=88	=88	=88	=88	=88	=88	=88	=88	=88	=88	=88	=88
8E-\L	.	.	8g\L 8ee-	.	8e-\L 8b- 8gg	.	4E-\	nos	4B-\	nos	4g\	nos	4ee-\	nos	4G/	.	8e-\L	.	8E-\L	.	4ee-\	.	4gg\	.
*	*	*	*	*	*	*	*	*	*Xij	*	*Xij	*	*	*	*	*	*	*	*	*	*	*	*	*
8E-\	.	.	16ee-\L	.	16gg\L	.	.	.	.	.	.	.	.	.	.	.	8e-\	.	8E-\	.	.	.	.	.
.	.	.	16gg\JJ	.	16bb-\JJ	.	.	.	.	.	.	.	.	.	.	.	.	.	.	.	.	.	.	.
8E-\	.	.	8g\L 8ee-	.	8e-\L 8b- 8gg	.	4r	.	4r	.	4r	.	4r	.	4G/	.	8e-\	.	8E-\	.	4ee-\	.	4gg\	.
8E-\J	.	.	8g\J 8ee-	.	8e-\J 8b- 8gg	.	.	.	.	.	.	.	.	.	.	.	8e-\J	.	8E-\J	.	.	.	.	.
=89	=89	=89	=89	=89	=89	=89	=89	=89	=89	=89	=89	=89	=89	=89	=89	=89	=89	=89	=89	=89	=89	=89	=89	=89
4E-\	.	.	4g\ 4ee-	.	4e-\ 4b- 4gg	.	2r	.	2r	.	2r	.	2r	.	4G/	.	4e-\	.	4E-\	.	4ee-\	.	4gg\	.
4r	.	.	4r	.	4r	.	.	.	.	.	.	.	.	.	4r	.	4r	.	4r	.	4r	.	4r	.
==	==	==	==	==	==	==	==	==	==	==	==	==	==	==	==	==	==	==	==	==	==	==	==	==
*-	*-	*-	*-	*-	*-	*-	*-	*-	*-	*-	*-	*-	*-	*-	*-	*-	*-	*-	*-	*-	*-	*-	*-	*-
!!!system-decoration: [(g1)][(g2)][(g3)][(g4)][(g5)]
!!!ENC: Marcin Jachim
!!!END: 2020-07-13
!!!EED: Jędrzej Mróz
!!!ESR: 2021-11-23
!!!RDF**kern: > = above
!!!RDF**kern: < = below
